;FLAVOR:Marlin
;TIME:3624
;Filament used: 2.1236m
;Layer height: 0.2
;MINX:89.2
;MINY:87.288
;MINZ:0.2
;MAXX:150.387
;MAXY:147.715
;MAXZ:24.6
;Generated with Cura_SteamEngine master
M140 S50
M105
M190 S50
M104 S200
M105
M109 S200
M82 ;absolute extrusion mode
; Ender 3 Custom Start G-code
G92 E0 ; Reset Extruder
G28 ; Home all axes
G29 P4 X4 Y4 ; Auto Level 4x4 grid
G1 Z2.0 F3000 ; Move Z Axis up little to prevent scratching of Heat Bed
G1 X0.1 Y20 Z0.3 F5000.0 ; Move to start position
G1 X0.1 Y200.0 Z0.3 F1500.0 E15 ; Draw the first line
G1 X0.4 Y200.0 Z0.3 F5000.0 ; Move to side a little
G1 X0.4 Y20 Z0.3 F1500.0 E30 ; Draw the second line
G92 E0 ; Reset Extruder
G1 Z2.0 F3000 ; Move Z Axis up little to prevent scratching of Heat Bed
G1 X5 Y20 Z0.3 F5000.0 ; Move over to prevent blob squish
G92 E0
G92 E0
G1 F2700 E-5
;LAYER_COUNT:123
;LAYER:0
M107
G0 F6000 X98.596 Y90.919 Z0.2
;TYPE:SKIRT
G1 F2700 E0
G1 F1200 X99.115 Y90.426 E0.02381
G1 X99.242 Y90.313 E0.02946
G1 X99.969 Y89.72 E0.06067
G1 X100.743 Y89.191 E0.09185
G1 X101.56 Y88.73 E0.12305
G1 X102.413 Y88.34 E0.15424
G1 X103.296 Y88.025 E0.18543
G1 X103.813 Y87.878 E0.2033
G1 X104.019 Y87.825 E0.21038
G1 X104.937 Y87.63 E0.24159
G1 X105.918 Y87.51 E0.27446
G1 X106.413 Y87.472 E0.29098
G1 X108.169 Y87.327 E0.34958
G1 X109.107 Y87.288 E0.3808
G1 X110.044 Y87.329 E0.412
G1 X110.974 Y87.45 E0.44319
G1 X111.89 Y87.65 E0.47438
G1 X112.786 Y87.927 E0.50557
G1 X113.655 Y88.28 E0.53676
G1 X114.491 Y88.705 E0.56796
G1 X115.288 Y89.2 E0.59916
G1 X115.971 Y89.705 E0.62741
G1 X116.952 Y90.492 E0.66924
G1 X117.366 Y90.833 E0.68708
G1 X119.344 Y92.373 E0.77046
G1 X121.345 Y93.842 E0.85302
G1 X123.442 Y95.29 E0.93778
G1 X125.546 Y96.658 E1.02125
G1 X127.68 Y97.96 E1.1044
G1 X129.907 Y99.235 E1.18975
G1 X132.093 Y100.406 E1.27223
G1 X134.351 Y101.534 E1.35618
G1 X136.624 Y102.59 E1.43954
G1 X138.928 Y103.581 E1.52296
G1 X141.307 Y104.528 E1.60812
G1 X141.805 Y104.714 E1.62581
G1 X142.344 Y104.924 E1.64505
G1 X143.203 Y105.302 E1.67626
G1 X144.026 Y105.751 E1.70744
G1 X144.808 Y106.269 E1.73864
G1 X145.543 Y106.851 E1.76982
G1 X146.226 Y107.494 E1.80102
G1 X146.852 Y108.193 E1.83223
G1 X147.416 Y108.942 E1.86342
G1 X147.913 Y109.737 E1.8946
G1 X148.327 Y110.539 E1.92462
G1 X148.806 Y111.57 E1.96243
G1 X149.319 Y112.656 E2.00238
G1 X149.683 Y113.52 E2.03356
G1 X149.973 Y114.412 E2.06476
G1 X150.185 Y115.326 E2.09596
G1 X150.351 Y116.652 E2.14041
G1 X150.366 Y116.886 E2.14821
G1 X150.387 Y117.824 E2.17941
G1 X150.327 Y118.76 E2.21061
G1 X150.187 Y119.687 E2.24179
G1 X149.867 Y120.937 E2.28471
G1 X149.844 Y121.009 E2.28722
G1 X149.384 Y122.204 E2.32981
G1 X149.06 Y122.918 E2.35589
G1 X148.874 Y123.319 E2.37059
G1 X148.272 Y124.576 E2.41695
G1 X147.831 Y125.404 E2.44815
G1 X147.321 Y126.191 E2.47934
G1 X146.747 Y126.932 E2.51052
G1 X146.111 Y127.622 E2.54173
G1 X145.418 Y128.254 E2.57292
G1 X144.674 Y128.826 E2.60414
G1 X143.885 Y129.332 E2.63531
G1 X143.055 Y129.769 E2.66651
G1 X142.263 Y130.106 E2.69514
G1 X141.557 Y130.375 E2.72026
G1 X139.088 Y131.35 E2.80856
G1 X136.801 Y132.331 E2.89132
G1 X134.504 Y133.392 E2.97548
G1 X132.274 Y134.5 E3.0583
G1 X130.038 Y135.692 E3.14258
G1 X127.848 Y136.94 E3.22641
G1 X125.695 Y138.249 E3.31022
G1 X123.58 Y139.617 E3.394
G1 X121.499 Y141.049 E3.47801
G1 X119.493 Y142.515 E3.56065
G1 X117.48 Y144.075 E3.64536
G1 X116.771 Y144.657 E3.67587
G1 X115.961 Y145.305 E3.71037
G1 X115.204 Y145.859 E3.74157
G1 X114.403 Y146.346 E3.77275
G1 X113.563 Y146.764 E3.80395
G1 X112.691 Y147.109 E3.83514
G1 X111.792 Y147.378 E3.86635
G1 X110.874 Y147.569 E3.89754
G1 X109.943 Y147.682 E3.92873
G1 X109.006 Y147.715 E3.95992
G1 X108.113 Y147.672 E3.98965
G1 X107.462 Y147.614 E4.01139
G1 X106.036 Y147.502 E4.05897
G1 X105.158 Y147.398 E4.08837
G1 X104.852 Y147.349 E4.09868
G1 X103.933 Y147.161 E4.12988
G1 X103.033 Y146.896 E4.16108
G1 X102.16 Y146.555 E4.19226
G1 X101.318 Y146.141 E4.22346
G1 X100.515 Y145.657 E4.25465
G1 X99.713 Y145.072 E4.28766
G1 X99.542 Y144.935 E4.29495
G1 X98.836 Y144.318 E4.32614
G1 X98.185 Y143.643 E4.35733
G1 X97.346 Y142.567 E4.40271
G1 X96.643 Y141.541 E4.44408
G1 X96.485 Y141.32 E4.45311
G1 X96.199 Y140.895 E4.47015
G1 X96.042 Y140.669 E4.4793
G1 X95.54 Y139.877 E4.51049
G1 X95.107 Y139.045 E4.54169
G1 X94.746 Y138.179 E4.57289
G1 X94.461 Y137.286 E4.60407
G1 X94.252 Y136.371 E4.63529
G1 X94.123 Y135.442 E4.66648
G1 X94.073 Y134.506 E4.69766
G1 X94.103 Y133.568 E4.72887
G1 X94.206 Y132.673 E4.75883
G1 X94.409 Y131.386 E4.80217
G1 X94.762 Y128.922 E4.88496
G1 X95.056 Y126.361 E4.9707
G1 X95.268 Y123.904 E5.05272
G1 X95.415 Y121.35 E5.13781
G1 X95.488 Y118.861 E5.22063
G1 X95.492 Y116.337 E5.30458
G1 X95.423 Y113.817 E5.38842
G1 X95.284 Y111.32 E5.4716
G1 X95.073 Y108.797 E5.55581
G1 X94.788 Y106.269 E5.64043
G1 X94.44 Y103.805 E5.72319
G1 X94.337 Y103.192 E5.74387
G1 X94.197 Y102.276 E5.77469
G1 X94.095 Y101.344 E5.80587
G1 X94.073 Y100.406 E5.83708
G1 X94.131 Y99.47 E5.86827
G1 X94.268 Y98.542 E5.89947
G1 X94.484 Y97.629 E5.93067
G1 X94.776 Y96.738 E5.96186
G1 X95.144 Y95.876 E5.99303
G1 X95.584 Y95.047 E6.02425
G1 X95.965 Y94.443 E6.048
G1 X96.599 Y93.508 E6.08557
G1 X97.398 Y92.36 E6.13209
G1 X97.967 Y91.614 E6.1633
G1 X98.596 Y90.919 E6.19448
G0 F6000 X98.905 Y91.176
G1 F1200 X99.381 Y90.725 E6.21629
G1 X99.508 Y90.612 E6.22194
G1 X100.222 Y90.03 E6.25258
G1 X100.983 Y89.513 E6.28318
G1 X101.787 Y89.064 E6.31381
G1 X102.626 Y88.686 E6.34441
G1 X103.913 Y88.265 E6.38945
G1 X104.119 Y88.212 E6.39652
G1 X105.02 Y88.022 E6.42715
G1 X105.949 Y87.909 E6.45828
G1 X106.388 Y87.875 E6.47292
G1 X108.203 Y87.725 E6.5335
G1 X109.123 Y87.688 E6.56412
G1 X110.043 Y87.731 E6.59475
G1 X110.955 Y87.853 E6.62536
G1 X111.853 Y88.054 E6.65596
G1 X112.731 Y88.333 E6.6866
G1 X113.581 Y88.686 E6.71722
G1 X114.397 Y89.112 E6.74783
G1 X115.174 Y89.607 E6.77847
G1 X115.721 Y90.017 E6.80121
G1 X116.697 Y90.801 E6.84285
G1 X117.111 Y91.142 E6.86069
G1 X119.084 Y92.678 E6.94385
G1 X121.133 Y94.183 E7.02841
G1 X123.194 Y95.605 E7.11169
G1 X125.341 Y97.002 E7.19689
G1 X127.478 Y98.306 E7.28015
G1 X129.698 Y99.576 E7.36522
G1 X131.936 Y100.775 E7.44966
G1 X134.154 Y101.883 E7.53213
G1 X136.491 Y102.969 E7.61784
G1 X138.771 Y103.95 E7.70039
G1 X141.183 Y104.91 E7.78674
G1 X141.66 Y105.087 E7.80366
G1 X142.199 Y105.297 E7.8229
G1 X143.042 Y105.668 E7.85353
G1 X143.849 Y106.111 E7.88415
G1 X144.614 Y106.622 E7.91475
G1 X145.333 Y107.198 E7.94539
G1 X145.999 Y107.834 E7.97602
G1 X146.607 Y108.525 E8.00663
G1 X147.152 Y109.267 E8.03725
G1 X147.632 Y110.053 E8.06789
G1 X147.964 Y110.708 E8.09231
G1 X148.414 Y111.676 E8.12782
G1 X148.958 Y112.827 E8.17016
G1 X149.314 Y113.675 E8.20075
G1 X149.596 Y114.552 E8.23139
G1 X149.801 Y115.449 E8.26199
G1 X149.952 Y116.678 E8.30317
G1 X149.967 Y116.912 E8.31097
G1 X149.986 Y117.832 E8.34158
G1 X149.925 Y118.751 E8.37221
G1 X149.785 Y119.661 E8.40284
G1 X149.486 Y120.816 E8.44252
G1 X149.463 Y120.888 E8.44503
G1 X149.02 Y122.039 E8.48605
G1 X148.697 Y122.75 E8.51203
G1 X148.513 Y123.147 E8.52658
G1 X147.911 Y124.404 E8.57293
G1 X147.478 Y125.216 E8.60354
G1 X146.976 Y125.987 E8.63414
G1 X146.408 Y126.713 E8.6648
G1 X145.78 Y127.386 E8.69542
G1 X145.096 Y128.002 E8.72603
G1 X144.361 Y128.556 E8.75664
G1 X143.581 Y129.045 E8.78726
G1 X142.761 Y129.464 E8.81789
G1 X142.12 Y129.732 E8.841
G1 X141.447 Y129.988 E8.86495
G1 X138.95 Y130.975 E8.95425
G1 X136.624 Y131.972 E9.03842
G1 X134.337 Y133.029 E9.12222
G1 X132.087 Y134.147 E9.20578
G1 X129.832 Y135.349 E9.29078
G1 X127.648 Y136.593 E9.37437
G1 X125.475 Y137.914 E9.45895
G1 X123.381 Y139.268 E9.54189
G1 X121.258 Y140.729 E9.62761
G1 X119.258 Y142.191 E9.71001
G1 X117.226 Y143.765 E9.7955
G1 X116.521 Y144.344 E9.82584
G1 X115.711 Y144.992 E9.86034
G1 X114.968 Y145.536 E9.89097
G1 X114.18 Y146.012 E9.92159
G1 X113.354 Y146.419 E9.95221
G1 X112.496 Y146.753 E9.98284
G1 X111.612 Y147.01 E10.01346
G1 X110.709 Y147.19 E10.04408
G1 X109.794 Y147.292 E10.0747
G1 X108.874 Y147.313 E10.10531
G1 X108.148 Y147.273 E10.12949
G1 X107.524 Y147.217 E10.15033
G1 X106.067 Y147.103 E10.19894
G1 X105.221 Y147.003 E10.22727
G1 X104.915 Y146.954 E10.23758
G1 X104.013 Y146.769 E10.26821
G1 X103.131 Y146.506 E10.29882
G1 X102.274 Y146.168 E10.32946
G1 X101.451 Y145.757 E10.36005
G1 X100.666 Y145.276 E10.39068
G1 X99.963 Y144.759 E10.4197
G1 X99.792 Y144.622 E10.42699
G1 X99.1 Y144.016 E10.45758
G1 X98.462 Y143.352 E10.48821
G1 X97.676 Y142.341 E10.5308
G1 X96.887 Y141.189 E10.57724
G1 X96.817 Y141.097 E10.58109
G1 X96.526 Y140.664 E10.59844
G1 X96.37 Y140.44 E10.60752
G1 X95.878 Y139.662 E10.63813
G1 X95.455 Y138.845 E10.66873
G1 X95.104 Y137.993 E10.69938
G1 X94.829 Y137.115 E10.72998
G1 X94.631 Y136.216 E10.7606
G1 X94.512 Y135.303 E10.79122
G1 X94.472 Y134.383 E10.82185
G1 X94.512 Y133.463 E10.85248
G1 X94.601 Y132.735 E10.87687
G1 X94.804 Y131.448 E10.92021
G1 X95.162 Y128.954 E11.00401
G1 X95.45 Y126.444 E11.08804
G1 X95.67 Y123.89 E11.1733
G1 X95.814 Y121.385 E11.25676
G1 X95.888 Y118.874 E11.34031
G1 X95.892 Y116.326 E11.42506
G1 X95.823 Y113.818 E11.5085
G1 X95.681 Y111.264 E11.59358
G1 X95.471 Y108.755 E11.67732
G1 X95.189 Y106.249 E11.7612
G1 X94.837 Y103.753 E11.84504
G1 X94.761 Y103.308 E11.86005
G1 X94.593 Y102.215 E11.89683
G1 X94.493 Y101.3 E11.92745
G1 X94.474 Y100.38 E11.95805
G1 X94.534 Y99.461 E11.98868
G1 X94.674 Y98.551 E12.01931
G1 X94.892 Y97.657 E12.04991
G1 X95.187 Y96.785 E12.08053
G1 X95.556 Y95.941 E12.11117
G1 X95.998 Y95.133 E12.1418
G1 X96.296 Y94.668 E12.16017
G1 X96.928 Y93.737 E12.19759
G1 X97.727 Y92.589 E12.24411
G1 X98.285 Y91.857 E12.27473
G1 X98.905 Y91.176 E12.30536
G0 F6000 X99.213 Y91.433
G1 F1200 X99.647 Y91.024 E12.32519
G1 X99.774 Y90.911 E12.33085
G1 X100.474 Y90.341 E12.36087
G1 X101.223 Y89.835 E12.39094
G1 X102.013 Y89.398 E12.42096
G1 X102.838 Y89.032 E12.45098
G1 X104.012 Y88.653 E12.49201
G1 X104.218 Y88.6 E12.49909
G1 X105.102 Y88.414 E12.52914
G1 X105.979 Y88.308 E12.55852
G1 X106.421 Y88.274 E12.57326
G1 X108.236 Y88.124 E12.63383
G1 X109.139 Y88.088 E12.66389
G1 X110.041 Y88.132 E12.69393
G1 X110.935 Y88.256 E12.72395
G1 X111.816 Y88.459 E12.75402
G1 X112.674 Y88.738 E12.78403
G1 X113.505 Y89.093 E12.81408
G1 X114.301 Y89.519 E12.84411
G1 X115.056 Y90.014 E12.87414
G1 X115.471 Y90.329 E12.89146
G1 X116.443 Y91.11 E12.93294
G1 X116.852 Y91.447 E12.95056
G1 X118.847 Y93 E13.03465
G1 X120.898 Y94.506 E13.11928
G1 X122.995 Y95.954 E13.20404
G1 X125.12 Y97.336 E13.28835
G1 X127.292 Y98.662 E13.37299
G1 X129.489 Y99.919 E13.45718
G1 X131.706 Y101.106 E13.54082
G1 X134.014 Y102.259 E13.62663
G1 X136.315 Y103.328 E13.71102
G1 X138.644 Y104.33 E13.79535
G1 X141.023 Y105.277 E13.88051
G1 X141.515 Y105.46 E13.89797
G1 X142.054 Y105.67 E13.91721
G1 X142.88 Y106.035 E13.94724
G1 X143.671 Y106.471 E13.97729
G1 X144.42 Y106.976 E14.00733
G1 X145.121 Y107.545 E14.03736
G1 X145.769 Y108.173 E14.06737
G1 X146.359 Y108.857 E14.09742
G1 X146.887 Y109.59 E14.12746
G1 X147.347 Y110.367 E14.1575
G1 X147.601 Y110.876 E14.17642
G1 X148.052 Y111.846 E14.21199
G1 X148.596 Y112.997 E14.25434
G1 X148.945 Y113.83 E14.28438
G1 X149.22 Y114.691 E14.31444
G1 X149.417 Y115.572 E14.34446
G1 X149.553 Y116.703 E14.38235
G1 X149.568 Y116.937 E14.39015
G1 X149.586 Y117.84 E14.42019
G1 X149.524 Y118.741 E14.45023
G1 X149.382 Y119.633 E14.48027
G1 X149.105 Y120.694 E14.51674
G1 X149.082 Y120.766 E14.51926
G1 X148.656 Y121.874 E14.55874
G1 X148.334 Y122.583 E14.58464
G1 X148.152 Y122.974 E14.59898
G1 X147.55 Y124.231 E14.64534
G1 X147.125 Y125.027 E14.67535
G1 X146.63 Y125.783 E14.70541
G1 X146.071 Y126.492 E14.73544
G1 X145.451 Y127.149 E14.76548
G1 X144.775 Y127.748 E14.79552
G1 X144.049 Y128.285 E14.82556
G1 X143.278 Y128.756 E14.85561
G1 X142.469 Y129.157 E14.88564
G1 X141.978 Y129.358 E14.90328
G1 X141.3 Y129.616 E14.92741
G1 X138.794 Y130.606 E15.01703
G1 X136.464 Y131.605 E15.10135
G1 X134.17 Y132.665 E15.1854
G1 X131.9 Y133.793 E15.26971
G1 X129.652 Y134.991 E15.35443
G1 X127.438 Y136.253 E15.43919
G1 X125.256 Y137.579 E15.52412
G1 X123.143 Y138.946 E15.60782
G1 X121.065 Y140.376 E15.69172
G1 X118.977 Y141.902 E15.77774
G1 X116.994 Y143.438 E15.86116
G1 X116.271 Y144.032 E15.89228
G1 X115.461 Y144.68 E15.92678
G1 X114.731 Y145.212 E15.95683
G1 X113.958 Y145.678 E15.98685
G1 X113.146 Y146.074 E16.0169
G1 X112.302 Y146.396 E16.04694
G1 X111.433 Y146.642 E16.07698
G1 X110.546 Y146.81 E16.10701
G1 X109.647 Y146.9 E16.13706
G1 X108.744 Y146.909 E16.16709
G1 X108.184 Y146.875 E16.18575
G1 X107.59 Y146.822 E16.20559
G1 X106.099 Y146.705 E16.25533
G1 X105.284 Y146.608 E16.28263
G1 X104.978 Y146.559 E16.29294
G1 X104.094 Y146.377 E16.32295
G1 X103.229 Y146.117 E16.353
G1 X102.39 Y145.782 E16.38304
G1 X101.584 Y145.374 E16.41309
G1 X100.818 Y144.896 E16.44312
G1 X100.213 Y144.447 E16.46818
G1 X100.042 Y144.31 E16.47547
G1 X99.363 Y143.715 E16.50549
G1 X98.74 Y143.062 E16.53551
G1 X98.006 Y142.115 E16.57536
G1 X97.25 Y141.012 E16.61984
G1 X97.149 Y140.874 E16.62553
G1 X96.844 Y140.421 E16.64369
G1 X96.699 Y140.212 E16.65215
G1 X96.216 Y139.448 E16.68221
G1 X95.803 Y138.645 E16.71225
G1 X95.463 Y137.809 E16.74226
G1 X95.198 Y136.945 E16.77232
G1 X95.01 Y136.062 E16.80235
G1 X94.902 Y135.165 E16.8324
G1 X94.873 Y134.263 E16.86242
G1 X94.924 Y133.361 E16.89246
G1 X94.997 Y132.798 E16.91135
G1 X95.195 Y131.542 E16.95364
G1 X95.557 Y129.019 E17.03841
G1 X95.851 Y126.452 E17.12435
G1 X96.067 Y123.946 E17.20801
G1 X96.213 Y121.419 E17.2922
G1 X96.288 Y118.851 E17.37764
G1 X96.292 Y116.316 E17.46196
G1 X96.223 Y113.786 E17.54614
G1 X96.082 Y111.245 E17.63078
G1 X95.872 Y108.744 E17.71426
G1 X95.584 Y106.185 E17.79991
G1 X95.233 Y103.696 E17.88351
G1 X95.128 Y103.071 E17.90459
G1 X94.988 Y102.155 E17.93541
G1 X94.891 Y101.257 E17.96545
G1 X94.874 Y100.354 E17.99549
G1 X94.937 Y99.453 E18.02553
G1 X95.08 Y98.561 E18.05558
G1 X95.3 Y97.686 E18.08559
G1 X95.598 Y96.833 E18.11564
G1 X95.969 Y96.01 E18.14567
G1 X96.627 Y94.892 E18.18881
G1 X97.256 Y93.965 E18.22607
G1 X98.055 Y92.817 E18.27259
G1 X98.603 Y92.1 E18.30261
G1 X99.213 Y91.433 E18.33267
G1 F2700 E13.33267
;MESH:shade-holder.stl
G0 F6000 X107.314 Y132.745
G0 X106.708 Y133.646
G0 X106.337 Y134.345
G0 X107.885 Y135.491
;TYPE:WALL-INNER
G1 F2700 E18.33267
G1 F1200 X106.166 Y134.461 E18.39932
G1 X106.029 Y134.359 E18.405
G1 X106.662 Y133.828 E18.43248
G1 X108.261 Y134.787 E18.4945
G1 X108.781 Y135.033 E18.51363
G1 X108.638 Y135.846 E18.54109
G1 X107.885 Y135.491 E18.56878
G0 F6000 X107.113 Y135.495
;TYPE:WALL-OUTER
G1 F1200 X106.947 Y136.189 E18.59251
G1 X106.851 Y136.304 E18.59749
G1 X106.676 Y136.317 E18.60333
G1 X106.567 Y136.227 E18.60803
G1 X106.547 Y136.059 E18.61366
G1 X106.604 Y135.967 E18.61726
G1 X107.109 Y135.493 E18.64029
G1 X105.942 Y134.793 E18.68556
G1 X105.384 Y134.378 E18.70868
G1 X106.642 Y133.323 E18.76329
G1 X106.833 Y133.464 E18.77119
G1 X108.45 Y134.434 E18.8339
G1 X109.228 Y134.802 E18.86253
G1 X108.941 Y136.432 E18.91758
G1 X107.699 Y135.846 E18.96325
G1 X107.113 Y135.495 E18.98597
G0 F6000 X107.036 Y134.937
G0 X106.686 Y134.317
;TYPE:SKIN
G1 F1200 X106.699 Y134.306 E18.98654
G1 X108.077 Y135.132 E19.03998
G1 X108.345 Y135.259 E19.04984
G1 X108.342 Y135.275 E19.05038
G1 X108.074 Y135.149 E19.06023
G1 X106.686 Y134.317 E19.11405
G0 F6000 X106.564 Y134.172
G1 F2700 E14.11405
G0 F6000 X106.507 Y134.103
G0 X106.65 Y133.598
G0 X107.293 Y132.729
G0 X107.314 Y102.255
G0 X106.711 Y101.353
G0 X106.336 Y100.656
G0 X107.881 Y99.511
;TYPE:WALL-INNER
G1 F2700 E19.11405
G1 F1200 X108.638 Y99.154 E19.14189
G1 X108.781 Y99.967 E19.16935
G1 X108.261 Y100.213 E19.18848
G1 X106.661 Y101.173 E19.25054
G1 X106.028 Y100.642 E19.27802
G1 X106.166 Y100.539 E19.28375
G1 X107.881 Y99.511 E19.35025
G0 F6000 X107.111 Y99.506
;TYPE:WALL-OUTER
G1 F1200 X107.699 Y99.154 E19.37304
G1 X108.941 Y98.568 E19.41872
G1 X109.228 Y100.198 E19.47377
G1 X108.45 Y100.566 E19.50239
G1 X106.833 Y101.536 E19.56511
G1 X106.641 Y101.678 E19.57305
G1 X105.382 Y100.623 E19.62769
G1 X105.942 Y100.207 E19.65089
G1 X107.109 Y99.508 E19.69613
