;FLAVOR:Marlin
;TIME:3716
;Filament used: 2.18068m
;Layer height: 0.2
;MINX:89.2
;MINY:89.2
;MINZ:0.2
;MAXX:147.211
;MAXY:145.8
;MAXZ:24.6
;Generated with Cura_SteamEngine master
M140 S50
M105
M190 S50
M104 S200
M105
M109 S200
M82 ;absolute extrusion mode
; Ender 3 Custom Start G-code
G92 E0 ; Reset Extruder
G28 ; Home all axes
G29 P4 X4 Y4 ; Auto Level 4x4 grid
G1 Z2.0 F3000 ; Move Z Axis up little to prevent scratching of Heat Bed
G1 X0.1 Y20 Z0.3 F5000.0 ; Move to start position
G1 X0.1 Y200.0 Z0.3 F1500.0 E15 ; Draw the first line
G1 X0.4 Y200.0 Z0.3 F5000.0 ; Move to side a little
G1 X0.4 Y20 Z0.3 F1500.0 E30 ; Draw the second line
G92 E0 ; Reset Extruder
G1 Z2.0 F3000 ; Move Z Axis up little to prevent scratching of Heat Bed
G1 X5 Y20 Z0.3 F5000.0 ; Move over to prevent blob squish
G92 E0
G92 E0
G1 F2700 E-5
;LAYER_COUNT:123
;LAYER:0
M107
G0 F6000 X100.735 Y93.313 Z0.2
;TYPE:SKIRT
G1 F2700 E0
G1 F1200 X100.891 Y93.149 E0.00753
G1 X101.464 Y92.605 E0.03381
G1 X102.089 Y92.122 E0.06008
G1 X102.759 Y91.704 E0.08634
G1 X103.468 Y91.357 E0.1126
G1 X104.208 Y91.083 E0.13884
G1 X104.729 Y90.939 E0.15682
G1 X104.959 Y90.884 E0.16469
G1 X105.735 Y90.739 E0.19094
G1 X106.522 Y90.674 E0.21721
G1 X107.286 Y90.689 E0.24262
G1 X108.022 Y90.549 E0.26754
G1 X108.809 Y90.48 E0.29382
G1 X109.599 Y90.491 E0.3201
G1 X110.383 Y90.583 E0.34635
G1 X111.154 Y90.753 E0.37261
G1 X111.904 Y91 E0.39887
G1 X112.625 Y91.321 E0.42512
G1 X113.31 Y91.714 E0.45139
G1 X113.952 Y92.174 E0.47766
G1 X114.544 Y92.697 E0.50393
G1 X115.08 Y93.277 E0.5302
G1 X115.555 Y93.908 E0.55647
G1 X115.963 Y94.584 E0.58273
G1 X116.301 Y95.298 E0.609
G1 X116.565 Y96.042 E0.63526
G1 X116.774 Y96.922 E0.66535
G1 X117.133 Y98.961 E0.73421
G1 X117.23 Y99.745 E0.76048
G1 X117.248 Y100.535 E0.78676
G1 X117.186 Y101.322 E0.81302
G1 X117.044 Y102.099 E0.83929
G1 X116.825 Y102.857 E0.86553
G1 X116.53 Y103.59 E0.89181
G1 X116.162 Y104.289 E0.91809
G1 X115.726 Y104.947 E0.94434
G1 X115.225 Y105.558 E0.97062
G1 X114.666 Y106.115 E0.99687
G1 X114.052 Y106.612 E1.02314
G1 X113.392 Y107.045 E1.0494
G1 X112.786 Y107.365 E1.07219
G1 X112.226 Y107.63 E1.09279
G1 X111.285 Y108.194 E1.12928
G1 X110.628 Y108.632 E1.15555
G1 X109.93 Y109.001 E1.18181
G1 X109.198 Y109.298 E1.20808
G1 X108.44 Y109.52 E1.23435
G1 X107.664 Y109.664 E1.2606
G1 X106.877 Y109.728 E1.28686
G1 X106.087 Y109.713 E1.31314
G1 X105.303 Y109.618 E1.33941
G1 X104.533 Y109.444 E1.36567
G1 X103.784 Y109.193 E1.39194
G1 X103.065 Y108.867 E1.4182
G1 X102.382 Y108.471 E1.44446
G1 X101.624 Y107.91 E1.47582
G1 X100.05 Y106.591 E1.54412
G1 X99.471 Y106.054 E1.57039
G1 X98.95 Y105.461 E1.59664
G1 X98.491 Y104.819 E1.62289
G1 X98.099 Y104.133 E1.64917
G1 X97.779 Y103.411 E1.67544
G1 X97.534 Y102.66 E1.70171
G1 X97.365 Y101.889 E1.72796
G1 X97.275 Y101.104 E1.75424
G1 X97.266 Y100.315 E1.78049
G1 X97.336 Y99.528 E1.80677
G1 X97.485 Y98.753 E1.83302
G1 X97.712 Y97.996 E1.8593
G1 X98.014 Y97.267 E1.88555
G1 X98.389 Y96.572 E1.91181
G1 X98.832 Y95.918 E1.93808
G1 X99.338 Y95.312 E1.96434
G1 X99.474 Y95.076 E1.9734
G1 X99.875 Y94.396 E1.99966
G1 X100.342 Y93.759 E2.02593
G1 X100.735 Y93.313 E2.0457
G0 F6000 X101.025 Y93.589
G1 F1200 X101.181 Y93.425 E2.05323
G1 X101.74 Y92.896 E2.07883
G1 X102.35 Y92.428 E2.1044
G1 X103.005 Y92.025 E2.12998
G1 X103.699 Y91.693 E2.15556
G1 X104.424 Y91.435 E2.18116
G1 X104.822 Y91.328 E2.19487
G1 X105.052 Y91.273 E2.20273
G1 X105.808 Y91.133 E2.2283
G1 X106.575 Y91.073 E2.25389
G1 X107.327 Y91.092 E2.27891
G1 X107.38 Y91.076 E2.28075
G1 X108.137 Y90.937 E2.30635
G1 X108.903 Y90.877 E2.33191
G1 X109.672 Y90.898 E2.3575
G1 X110.435 Y90.998 E2.38309
G1 X111.183 Y91.177 E2.40867
G1 X111.909 Y91.432 E2.43426
G1 X112.604 Y91.761 E2.45984
G1 X113.261 Y92.161 E2.48542
G1 X113.873 Y92.627 E2.51101
G1 X114.433 Y93.154 E2.53658
G1 X114.936 Y93.736 E2.56217
G1 X115.376 Y94.367 E2.58775
G1 X115.748 Y95.04 E2.61333
G1 X116.047 Y95.748 E2.63889
G1 X116.272 Y96.484 E2.66449
G1 X116.38 Y96.992 E2.68176
G1 X116.739 Y99.031 E2.75062
G1 X116.833 Y99.794 E2.77619
G1 X116.847 Y100.563 E2.80177
G1 X116.781 Y101.33 E2.82738
G1 X116.636 Y102.085 E2.85295
G1 X116.413 Y102.821 E2.87853
G1 X116.115 Y103.53 E2.90411
G1 X115.746 Y104.205 E2.92969
G1 X115.308 Y104.837 E2.95527
G1 X114.807 Y105.421 E2.98086
G1 X114.248 Y105.949 E3.00644
G1 X113.637 Y106.416 E3.03201
G1 X112.981 Y106.818 E3.0576
G1 X112.615 Y107.003 E3.07124
G1 X112.04 Y107.275 E3.0924
G1 X111.064 Y107.86 E3.13025
G1 X110.406 Y108.298 E3.15654
G1 X109.725 Y108.656 E3.18213
G1 X109.01 Y108.94 E3.20771
G1 X108.27 Y109.149 E3.23329
G1 X107.512 Y109.28 E3.25887
G1 X106.745 Y109.331 E3.28444
G1 X105.976 Y109.303 E3.31004
G1 X105.214 Y109.195 E3.33563
G1 X104.468 Y109.008 E3.36121
G1 X103.745 Y108.745 E3.3868
G1 X103.054 Y108.408 E3.41237
G1 X102.401 Y108.002 E3.43795
G1 X101.881 Y107.604 E3.45973
G1 X100.307 Y106.285 E3.52803
G1 X99.744 Y105.761 E3.55361
G1 X99.238 Y105.181 E3.57921
G1 X98.796 Y104.552 E3.60478
G1 X98.421 Y103.881 E3.63035
G1 X98.117 Y103.174 E3.65594
G1 X97.889 Y102.439 E3.68154
G1 X97.738 Y101.685 E3.70711
G1 X97.666 Y100.919 E3.7327
G1 X97.674 Y100.15 E3.75828
G1 X97.762 Y99.386 E3.78386
G1 X97.929 Y98.635 E3.80945
G1 X98.173 Y97.906 E3.83502
G1 X98.491 Y97.206 E3.86059
G1 X98.88 Y96.542 E3.88618
G1 X99.336 Y95.923 E3.91176
G1 X99.72 Y95.501 E3.93073
G1 X99.857 Y95.209 E3.94146
G1 X100.253 Y94.55 E3.96703
G1 X100.716 Y93.935 E3.99264
G1 X101.025 Y93.589 E4.00807
G0 F6000 X101.315 Y93.865
G1 F1200 X101.471 Y93.701 E4.01559
G1 X102.015 Y93.187 E4.04049
G1 X102.61 Y92.734 E4.06536
G1 X103.251 Y92.347 E4.09026
G1 X103.929 Y92.031 E4.11514
G1 X104.915 Y91.717 E4.14956
G1 X105.145 Y91.662 E4.15742
G1 X105.881 Y91.527 E4.18231
G1 X106.627 Y91.472 E4.20719
G1 X107.374 Y91.496 E4.23205
G1 X107.513 Y91.456 E4.23686
G1 X108.249 Y91.326 E4.26172
G1 X108.996 Y91.276 E4.28662
G1 X109.743 Y91.305 E4.31148
G1 X110.483 Y91.415 E4.33637
G1 X111.207 Y91.602 E4.36124
G1 X111.907 Y91.866 E4.38612
G1 X112.575 Y92.203 E4.41101
G1 X113.203 Y92.61 E4.4359
G1 X113.784 Y93.081 E4.46077
G1 X114.312 Y93.611 E4.48565
G1 X114.78 Y94.195 E4.51055
G1 X115.183 Y94.825 E4.53542
G1 X115.516 Y95.495 E4.56031
G1 X115.776 Y96.196 E4.58517
G1 X115.986 Y97.061 E4.61478
G1 X116.345 Y99.1 E4.68364
G1 X116.435 Y99.843 E4.70853
G1 X116.446 Y100.591 E4.73341
G1 X116.376 Y101.336 E4.7583
G1 X116.227 Y102.069 E4.78318
G1 X116.002 Y102.782 E4.80805
G1 X115.701 Y103.467 E4.83293
G1 X115.329 Y104.116 E4.85781
G1 X114.889 Y104.721 E4.88269
G1 X114.388 Y105.276 E4.90756
G1 X113.83 Y105.775 E4.93246
G1 X113.222 Y106.211 E4.95734
G1 X112.444 Y106.642 E4.98693
G1 X111.85 Y106.923 E5.00878
G1 X110.834 Y107.532 E5.04818
G1 X110.184 Y107.965 E5.07416
G1 X109.52 Y108.309 E5.09903
G1 X108.823 Y108.581 E5.12391
G1 X108.101 Y108.776 E5.14879
G1 X107.363 Y108.894 E5.17365
G1 X106.615 Y108.932 E5.19856
G1 X105.869 Y108.89 E5.22341
G1 X105.13 Y108.769 E5.24831
G1 X104.409 Y108.569 E5.2732
G1 X103.714 Y108.294 E5.29806
G1 X103.052 Y107.946 E5.32294
G1 X102.138 Y107.297 E5.36022
G1 X100.564 Y105.978 E5.42852
G1 X100.017 Y105.468 E5.4534
G1 X99.528 Y104.902 E5.47827
G1 X99.102 Y104.287 E5.50316
G1 X98.744 Y103.63 E5.52804
G1 X98.458 Y102.939 E5.55292
G1 X98.247 Y102.221 E5.57781
G1 X98.115 Y101.485 E5.60268
G1 X98.061 Y100.739 E5.62755
G1 X98.088 Y99.991 E5.65245
G1 X98.194 Y99.251 E5.67731
G1 X98.378 Y98.526 E5.70219
G1 X98.639 Y97.825 E5.72707
G1 X98.974 Y97.155 E5.75198
G1 X99.377 Y96.526 E5.77683
G1 X99.846 Y95.943 E5.80172
G1 X100.051 Y95.737 E5.81138
G1 X100.239 Y95.343 E5.8259
G1 X100.631 Y94.706 E5.85078
G1 X101.315 Y93.865 E5.88683
G0 F6000 X101.605 Y94.14
G1 F1200 X101.761 Y93.976 E5.89436
G1 X102.29 Y93.478 E5.91853
G1 X102.87 Y93.041 E5.94268
G1 X103.495 Y92.671 E5.96684
G1 X104.157 Y92.372 E5.991
G1 X105.008 Y92.106 E6.02065
G1 X105.238 Y92.051 E6.02852
G1 X105.953 Y91.921 E6.05269
G1 X106.677 Y91.871 E6.07683
G1 X107.413 Y91.901 E6.10133
G1 X107.644 Y91.836 E6.10931
G1 X108.36 Y91.716 E6.13345
G1 X109.086 Y91.675 E6.15764
G1 X109.811 Y91.714 E6.18179
G1 X110.527 Y91.833 E6.20593
G1 X111.227 Y92.03 E6.23012
G1 X111.9 Y92.302 E6.25426
G1 X112.539 Y92.647 E6.27841
G1 X113.137 Y93.06 E6.30258
G1 X113.685 Y93.536 E6.32673
G1 X114.178 Y94.069 E6.35087
G1 X114.61 Y94.654 E6.37506
G1 X114.974 Y95.282 E6.3992
G1 X115.268 Y95.946 E6.42336
G1 X115.486 Y96.639 E6.44752
G1 X115.592 Y97.131 E6.46426
G1 X115.951 Y99.17 E6.53312
G1 X116.037 Y99.891 E6.55727
G1 X116.044 Y100.617 E6.58142
G1 X115.971 Y101.34 E6.60559
G1 X115.819 Y102.05 E6.62974
G1 X115.589 Y102.739 E6.6539
G1 X115.286 Y103.399 E6.67805
G1 X114.911 Y104.022 E6.70224
G1 X114.471 Y104.599 E6.72637
G1 X113.97 Y105.125 E6.75053
G1 X113.413 Y105.592 E6.77471
G1 X112.809 Y105.996 E6.79888
G1 X112.273 Y106.28 E6.81905
G1 X111.663 Y106.568 E6.84149
G1 X110.611 Y107.199 E6.88229
G1 X110.569 Y107.23 E6.88402
G1 X109.963 Y107.631 E6.90819
G1 X109.317 Y107.962 E6.93234
G1 X108.638 Y108.22 E6.9565
G1 X107.935 Y108.403 E6.98066
G1 X107.216 Y108.506 E7.00481
G1 X106.49 Y108.53 E7.02897
G1 X105.766 Y108.475 E7.05312
G1 X105.052 Y108.34 E7.07729
G1 X104.358 Y108.127 E7.10144
G1 X103.691 Y107.839 E7.1256
G1 X103.059 Y107.48 E7.14978
G1 X102.395 Y106.991 E7.1772
G1 X100.821 Y105.672 E7.24551
G1 X100.291 Y105.175 E7.26967
G1 X99.818 Y104.623 E7.29385
G1 X99.409 Y104.023 E7.318
G1 X99.069 Y103.382 E7.34214
G1 X98.801 Y102.706 E7.36632
G1 X98.609 Y102.006 E7.39046
G1 X98.495 Y101.289 E7.41461
G1 X98.46 Y100.563 E7.43879
G1 X98.506 Y99.838 E7.46295
G1 X98.63 Y99.123 E7.48708
G1 X98.833 Y98.425 E7.51126
G1 X99.111 Y97.754 E7.53542
G1 X99.462 Y97.118 E7.55958
G1 X99.88 Y96.524 E7.58374
G1 X100.36 Y95.979 E7.60789
G1 X100.39 Y95.953 E7.60921
G1 X100.621 Y95.478 E7.62678
G1 X101.008 Y94.864 E7.65092
G1 X101.605 Y94.14 E7.68213
G0 F6000 X101.895 Y94.416
G1 F1200 X102.051 Y94.252 E7.68966
G1 X102.564 Y93.77 E7.71307
G1 X103.129 Y93.35 E7.73649
G1 X103.737 Y92.996 E7.75989
G1 X104.382 Y92.714 E7.7833
G1 X105.101 Y92.495 E7.8083
G1 X105.331 Y92.44 E7.81617
G1 X106.024 Y92.315 E7.83959
G1 X106.726 Y92.27 E7.86298
G1 X107.43 Y92.305 E7.88643
G1 X107.447 Y92.308 E7.887
G1 X107.774 Y92.217 E7.89829
G1 X108.469 Y92.106 E7.9217
G1 X109.173 Y92.076 E7.94514
G1 X109.875 Y92.125 E7.96854
G1 X110.567 Y92.253 E7.99195
G1 X111.24 Y92.459 E8.01536
G1 X111.886 Y92.74 E8.03879
G1 X112.495 Y93.092 E8.06218
G1 X113.061 Y93.512 E8.08563
G1 X113.575 Y93.992 E8.10902
G1 X114.032 Y94.528 E8.13244
G1 X114.425 Y95.112 E8.15586
G1 X114.749 Y95.737 E8.17927
G1 X115 Y96.395 E8.20269
G1 X115.198 Y97.2 E8.23027
G1 X115.557 Y99.239 E8.29913
G1 X115.64 Y99.938 E8.32254
G1 X115.642 Y100.642 E8.34595
G1 X115.565 Y101.342 E8.36938
G1 X115.409 Y102.028 E8.39278
G1 X115.177 Y102.693 E8.4162
G1 X114.87 Y103.326 E8.4396
G1 X114.494 Y103.921 E8.46301
G1 X114.052 Y104.47 E8.48645
G1 X113.551 Y104.965 E8.50988
G1 X112.998 Y105.399 E8.53326
G1 X112.102 Y105.919 E8.56771
G1 X111.469 Y106.219 E8.59101
G1 X110.392 Y106.863 E8.63275
G1 X110.331 Y106.909 E8.63529
G1 X109.743 Y107.296 E8.6587
G1 X109.115 Y107.614 E8.68212
G1 X108.455 Y107.859 E8.70553
G1 X107.771 Y108.027 E8.72896
G1 X107.073 Y108.116 E8.75236
G1 X106.369 Y108.126 E8.77578
G1 X105.668 Y108.056 E8.79921
G1 X104.98 Y107.907 E8.82262
G1 X104.313 Y107.681 E8.84605
G1 X103.677 Y107.381 E8.86944
G1 X103.078 Y107.011 E8.89285
G1 X102.652 Y106.684 E8.91071
G1 X101.078 Y105.365 E8.97902
G1 X100.565 Y104.883 E9.00243
G1 X100.11 Y104.346 E9.02584
G1 X99.718 Y103.761 E9.04926
G1 X99.396 Y103.135 E9.07267
G1 X99.147 Y102.476 E9.09611
G1 X98.974 Y101.794 E9.11951
G1 X98.879 Y101.096 E9.14294
G1 X98.864 Y100.393 E9.16632
G1 X98.929 Y99.692 E9.18974
G1 X99.073 Y99.003 E9.21315
G1 X99.294 Y98.334 E9.23658
G1 X99.589 Y97.695 E9.25999
G1 X99.956 Y97.094 E9.28342
G1 X100.387 Y96.538 E9.30681
G1 X100.706 Y96.212 E9.32198
G1 X101.002 Y95.616 E9.34412
G1 X101.385 Y95.026 E9.36751
G1 X101.895 Y94.416 E9.39396
G0 F6000 X102.185 Y94.692
G1 F1200 X102.341 Y94.528 E9.40149
G1 X102.838 Y94.063 E9.42412
G1 X103.386 Y93.659 E9.44677
G1 X103.978 Y93.323 E9.46941
G1 X104.606 Y93.058 E9.49208
G1 X105.194 Y92.884 E9.51247
G1 X105.424 Y92.829 E9.52034
G1 X106.094 Y92.71 E9.54297
G1 X106.774 Y92.67 E9.56563
G1 X107.454 Y92.71 E9.58828
G1 X107.477 Y92.714 E9.58906
G1 X107.903 Y92.598 E9.60375
G1 X108.576 Y92.498 E9.62638
G1 X109.257 Y92.477 E9.64904
G1 X109.935 Y92.537 E9.67168
G1 X110.602 Y92.675 E9.69433
G1 X111.248 Y92.89 E9.71697
G1 X111.864 Y93.18 E9.73962
G1 X112.442 Y93.54 E9.76227
G1 X112.974 Y93.965 E9.78492
G1 X113.452 Y94.45 E9.80756
G1 X113.87 Y94.987 E9.8302
G1 X114.222 Y95.57 E9.85285
G1 X114.504 Y96.19 E9.8755
G1 X114.711 Y96.838 E9.89813
G1 X114.804 Y97.269 E9.91279
G1 X115.163 Y99.308 E9.98165
G1 X115.242 Y99.985 E10.00432
G1 X115.24 Y100.666 E10.02697
G1 X115.159 Y101.342 E10.04962
G1 X115 Y102.003 E10.07223
G1 X114.763 Y102.642 E10.0949
G1 X114.454 Y103.249 E10.11755
G1 X114.075 Y103.815 E10.14021
G1 X113.633 Y104.332 E10.16283
G1 X113.134 Y104.795 E10.18547
G1 X112.583 Y105.196 E10.20814
G1 X111.931 Y105.557 E10.23293
G1 X111.279 Y105.865 E10.25691
G1 X110.172 Y106.529 E10.29984
G1 X110.092 Y106.588 E10.30315
G1 X109.523 Y106.961 E10.32578
G1 X108.914 Y107.265 E10.34842
G1 X108.273 Y107.496 E10.37108
G1 X107.61 Y107.649 E10.39371
G1 X106.933 Y107.724 E10.41637
G1 X106.252 Y107.719 E10.43902
G1 X105.576 Y107.635 E10.46167
G1 X104.915 Y107.472 E10.48432
G1 X104.278 Y107.232 E10.50696
G1 X103.673 Y106.919 E10.52961
G1 X102.909 Y106.377 E10.56077
G1 X101.335 Y105.058 E10.62907
G1 X100.839 Y104.591 E10.65173
G1 X100.402 Y104.069 E10.67437
G1 X100.029 Y103.5 E10.697
G1 X99.726 Y102.89 E10.71966
G1 X99.496 Y102.249 E10.74231
G1 X99.342 Y101.586 E10.76494
G1 X99.268 Y100.909 E10.7876
G1 X99.273 Y100.228 E10.81025
G1 X99.358 Y99.553 E10.83287
G1 X99.521 Y98.892 E10.85552
G1 X99.761 Y98.255 E10.87816
G1 X100.074 Y97.65 E10.90081
G1 X100.456 Y97.086 E10.92347
G1 X100.901 Y96.571 E10.94611
G1 X101.043 Y96.446 E10.9524
G1 X101.074 Y96.363 E10.95535
G1 X101.383 Y95.757 E10.97797
G1 X101.761 Y95.19 E11.00064
G1 X102.185 Y94.692 E11.02239
G0 F6000 X102.474 Y94.967
G1 F1200 X102.63 Y94.803 E11.02992
G1 X103.111 Y94.356 E11.05176
G1 X103.643 Y93.97 E11.07362
G1 X104.218 Y93.651 E11.09549
G1 X104.827 Y93.405 E11.11734
G1 X105.287 Y93.273 E11.13325
G1 X105.517 Y93.218 E11.14112
G1 X106.164 Y93.104 E11.16297
G1 X106.82 Y93.07 E11.18482
G1 X107.476 Y93.116 E11.20669
G1 X107.501 Y93.121 E11.20754
G1 X108.03 Y92.98 E11.22575
G1 X108.681 Y92.891 E11.2476
G1 X109.338 Y92.881 E11.26946
G1 X109.991 Y92.95 E11.2913
G1 X110.631 Y93.099 E11.31315
G1 X111.248 Y93.324 E11.33499
G1 X111.833 Y93.623 E11.35685
G1 X112.378 Y93.99 E11.3787
G1 X112.874 Y94.421 E11.40055
G1 X113.314 Y94.908 E11.42238
G1 X113.692 Y95.446 E11.44425
G1 X114.001 Y96.026 E11.46611
G1 X114.238 Y96.638 E11.48794
G1 X114.41 Y97.339 E11.51195
G1 X114.769 Y99.378 E11.58081
G1 X114.844 Y100.03 E11.60264
G1 X114.838 Y100.687 E11.62449
G1 X114.753 Y101.339 E11.64636
G1 X114.589 Y101.975 E11.6682
G1 X114.349 Y102.587 E11.69007
G1 X114.037 Y103.165 E11.71191
G1 X113.657 Y103.701 E11.73377
G1 X113.215 Y104.186 E11.75559
G1 X112.717 Y104.615 E11.77745
G1 X112.17 Y104.979 E11.79931
G1 X111.76 Y105.195 E11.81472
G1 X111.092 Y105.511 E11.8393
G1 X109.953 Y106.193 E11.88345
G1 X109.854 Y106.267 E11.88756
G1 X109.304 Y106.626 E11.90941
G1 X108.714 Y106.915 E11.93126
G1 X108.093 Y107.131 E11.95313
G1 X107.451 Y107.27 E11.97498
G1 X106.797 Y107.33 E11.99682
G1 X106.14 Y107.309 E12.01868
G1 X105.491 Y107.21 E12.04052
G1 X104.859 Y107.032 E12.06236
G1 X104.252 Y106.778 E12.08424
G1 X103.681 Y106.453 E12.10609
G1 X103.166 Y106.071 E12.12742
G1 X101.592 Y104.752 E12.19572
G1 X101.115 Y104.3 E12.21758
G1 X100.696 Y103.794 E12.23943
G1 X100.342 Y103.24 E12.2613
G1 X100.058 Y102.648 E12.28314
G1 X99.848 Y102.025 E12.305
G1 X99.715 Y101.382 E12.32684
G1 X99.661 Y100.727 E12.3487
G1 X99.687 Y100.071 E12.37054
G1 X99.793 Y99.422 E12.39241
G1 X99.976 Y98.792 E12.41423
G1 X100.235 Y98.188 E12.43609
G1 X100.565 Y97.62 E12.45794
