;FLAVOR:Marlin
;TIME:8223
;Filament used: 4.9623m
;Layer height: 0.2
;MINX:68.805
;MINY:44.656
;MINZ:0.2
;MAXX:178.622
;MAXY:132.831
;MAXZ:39.6
;Generated with Cura_SteamEngine master
M140 S50
M105
M190 S50
M104 S200
M105
M109 S200
M82 ;absolute extrusion mode
; Ender 3 Custom Start G-code
G92 E0 ; Reset Extruder
G28 ; Home all axes
G29 P4 X4 Y4 ; Auto Level 4x4 grid
G1 Z2.0 F3000 ; Move Z Axis up little to prevent scratching of Heat Bed
G1 X0.1 Y20 Z0.3 F5000.0 ; Move to start position
G1 X0.1 Y200.0 Z0.3 F1500.0 E15 ; Draw the first line
G1 X0.4 Y200.0 Z0.3 F5000.0 ; Move to side a little
G1 X0.4 Y20 Z0.3 F1500.0 E30 ; Draw the second line
G92 E0 ; Reset Extruder
G1 Z2.0 F3000 ; Move Z Axis up little to prevent scratching of Heat Bed
G1 X5 Y20 Z0.3 F5000.0 ; Move over to prevent blob squish
G92 E0
G92 E0
G1 F2700 E-5
;LAYER_COUNT:198
;LAYER:0
M107
G0 F6000 X127.071 Y60.613 Z0.2
;TYPE:SKIRT
G1 F2700 E0
G1 F1200 X128.843 Y57.296 E0.12508
G1 X129.25 Y56.619 E0.15135
G1 X129.695 Y56.021 E0.17614
G1 X132.077 Y53.12 E0.30099
G1 X132.608 Y52.536 E0.32724
G1 X133.155 Y52.042 E0.35176
G1 X136.058 Y49.658 E0.4767
G1 X136.693 Y49.188 E0.50297
G1 X137.332 Y48.807 E0.52772
G1 X140.648 Y47.035 E0.65277
G1 X141.362 Y46.698 E0.67903
G1 X142.06 Y46.45 E0.70367
G1 X145.653 Y45.36 E0.82855
G1 X146.419 Y45.169 E0.85481
G1 X147.153 Y45.061 E0.87948
G1 X150.893 Y44.693 E1.00447
G1 X151.682 Y44.656 E1.03075
G1 X152.421 Y44.693 E1.05536
G1 X156.161 Y45.061 E1.18035
G1 X156.942 Y45.178 E1.20662
G1 X157.661 Y45.36 E1.23128
G1 X161.254 Y46.45 E1.35617
G1 X161.997 Y46.717 E1.38242
G1 X162.665 Y47.034 E1.40702
G1 X165.982 Y48.806 E1.5321
G1 X166.659 Y49.213 E1.55837
G1 X167.257 Y49.658 E1.58316
G1 X170.158 Y52.04 E1.70801
G1 X170.742 Y52.571 E1.73426
G1 X171.237 Y53.119 E1.75882
G1 X173.62 Y56.022 E1.88374
G1 X174.089 Y56.657 E1.91
G1 X174.47 Y57.294 E1.93468
G1 X176.243 Y60.611 E2.05978
G1 X176.579 Y61.325 E2.08603
G1 X176.828 Y62.023 E2.11067
G1 X177.918 Y65.615 E2.23552
G1 X178.109 Y66.381 E2.26178
G1 X178.217 Y67.117 E2.28652
G1 X178.585 Y70.859 E2.41158
G1 X178.622 Y71.647 E2.43782
G1 X178.584 Y72.386 E2.46243
G1 X178.216 Y76.125 E2.58739
G1 X178.099 Y76.906 E2.61366
G1 X177.917 Y77.628 E2.63842
G1 X177.709 Y78.312 E2.6622
G1 X177.556 Y79.963 E2.71735
G1 X177.443 Y80.745 E2.74363
G1 X177.252 Y81.511 E2.76989
G1 X176.984 Y82.254 E2.79616
G1 X176.517 Y83.19 E2.83095
G1 X174.654 Y86.366 E2.95342
G1 X174.22 Y87.026 E2.97969
G1 X173.751 Y87.606 E3.0045
G1 X172.646 Y88.847 E3.05976
G1 X171.444 Y90.315 E3.12287
G1 X170.914 Y90.9 E3.14912
G1 X170.351 Y91.409 E3.17437
G1 X170.119 Y91.599 E3.18434
G1 X169.882 Y91.786 E3.19438
G1 X167.13 Y93.867 E3.30914
G1 X166.476 Y94.31 E3.33541
G1 X165.721 Y94.715 E3.36391
G1 X165.588 Y94.777 E3.36879
G1 X163.9 Y95.599 E3.43123
G1 X162.694 Y96.243 E3.47671
G1 X161.979 Y96.58 E3.503
G1 X161.272 Y96.831 E3.52795
G1 X160.368 Y97.104 E3.55936
G1 X160.088 Y97.183 E3.56903
G1 X159.17 Y97.423 E3.60059
G1 X157.662 Y97.881 E3.65301
G1 X156.896 Y98.072 E3.67927
G1 X156.161 Y98.18 E3.70398
G1 X152.421 Y98.548 E3.82897
G1 X151.632 Y98.585 E3.85524
G1 X150.893 Y98.548 E3.87985
G1 X147.153 Y98.18 E4.00485
G1 X146.372 Y98.063 E4.03111
G1 X145.653 Y97.881 E4.05578
G1 X142.06 Y96.791 E4.18066
G1 X141.317 Y96.524 E4.20692
G1 X140.646 Y96.206 E4.23162
G1 X137.33 Y94.433 E4.35668
G1 X136.654 Y94.025 E4.38295
G1 X136.059 Y93.583 E4.4076
G1 X133.156 Y91.2 E4.53252
G1 X132.572 Y90.669 E4.55877
G1 X132.077 Y90.121 E4.58333
G1 X129.694 Y87.219 E4.70822
G1 X129.224 Y86.584 E4.7345
G1 X128.842 Y85.944 E4.75929
G1 X127.071 Y82.628 E4.88432
G1 X126.734 Y81.913 E4.91061
G1 X126.487 Y81.218 E4.93515
G1 X125.397 Y77.626 E5.06
G1 X125.206 Y76.86 E5.08625
G1 X125.099 Y76.127 E5.11089
G1 X124.73 Y72.389 E5.23582
G1 X124.692 Y71.6 E5.2621
G1 X124.73 Y70.858 E5.28681
G1 X125.099 Y67.115 E5.4119
G1 X125.216 Y66.334 E5.43817
G1 X125.397 Y65.615 E5.46283
G1 X126.487 Y62.023 E5.58768
G1 X126.754 Y61.28 E5.61394
G1 X127.071 Y60.613 E5.6385
G0 F6000 X127.424 Y60.801
G1 F1200 X129.196 Y57.484 E5.76358
G1 X129.593 Y56.825 E5.78917
G1 X130.004 Y56.275 E5.81201
G1 X132.386 Y53.374 E5.93685
G1 X132.904 Y52.806 E5.96242
G1 X133.409 Y52.351 E5.98503
G1 X136.312 Y49.967 E6.10997
G1 X136.931 Y49.511 E6.13554
G1 X137.52 Y49.159 E6.15836
G1 X140.836 Y47.387 E6.28341
G1 X141.533 Y47.061 E6.309
G1 X142.176 Y46.833 E6.3317
G1 X145.769 Y45.743 E6.45658
G1 X146.515 Y45.558 E6.48214
G1 X147.192 Y45.46 E6.50489
G1 X150.932 Y45.092 E6.62989
G1 X151.701 Y45.056 E6.65549
G1 X152.382 Y45.092 E6.67817
G1 X156.122 Y45.46 E6.80317
G1 X156.882 Y45.575 E6.82873
G1 X157.545 Y45.743 E6.85148
G1 X161.138 Y46.833 E6.97636
G1 X161.862 Y47.094 E7.00196
G1 X162.477 Y47.387 E7.02462
G1 X165.794 Y49.159 E7.1497
G1 X166.453 Y49.556 E7.17529
G1 X167.003 Y49.967 E7.19812
G1 X169.904 Y52.349 E7.32297
G1 X170.472 Y52.867 E7.34854
G1 X170.928 Y53.373 E7.37119
G1 X173.311 Y56.276 E7.49611
G1 X173.767 Y56.895 E7.52168
G1 X174.117 Y57.483 E7.54444
G1 X175.89 Y60.8 E7.66954
G1 X176.217 Y61.496 E7.69511
G1 X176.445 Y62.139 E7.7178
G1 X177.535 Y65.731 E7.84265
G1 X177.72 Y66.478 E7.86825
G1 X177.818 Y67.156 E7.89103
G1 X178.186 Y70.898 E8.01609
G1 X178.222 Y71.666 E8.04167
G1 X178.186 Y72.347 E8.06435
G1 X177.818 Y76.086 E8.18931
G1 X177.703 Y76.846 E8.21487
G1 X177.534 Y77.512 E8.23773
G1 X177.314 Y78.238 E8.26296
G1 X177.157 Y79.926 E8.31934
G1 X177.047 Y80.687 E8.34492
G1 X176.858 Y81.433 E8.37051
G1 X176.592 Y82.155 E8.39611
G1 X176.172 Y82.987 E8.4271
G1 X174.309 Y86.163 E8.54957
G1 X173.886 Y86.805 E8.57514
G1 X173.452 Y87.34 E8.59805
G1 X172.355 Y88.572 E8.65292
G1 X171.135 Y90.062 E8.71697
G1 X170.617 Y90.631 E8.74256
G1 X170.098 Y91.099 E8.76581
G1 X169.866 Y91.289 E8.77578
G1 X169.64 Y91.466 E8.78533
G1 X166.888 Y93.547 E8.90008
G1 X166.252 Y93.979 E8.92566
G1 X165.552 Y94.352 E8.95204
G1 X163.694 Y95.255 E9.02075
G1 X162.505 Y95.89 E9.06558
G1 X161.809 Y96.217 E9.09116
G1 X161.156 Y96.448 E9.11419
G1 X160.252 Y96.721 E9.1456
G1 X159.987 Y96.796 E9.15476
G1 X159.056 Y97.04 E9.18677
G1 X157.546 Y97.498 E9.23926
G1 X156.8 Y97.683 E9.26482
G1 X156.122 Y97.781 E9.2876
G1 X152.382 Y98.149 E9.4126
G1 X151.613 Y98.185 E9.4382
G1 X150.932 Y98.149 E9.46088
G1 X147.192 Y97.781 E9.58588
G1 X146.432 Y97.666 E9.61144
G1 X145.769 Y97.498 E9.63419
G1 X142.176 Y96.408 E9.75907
G1 X141.452 Y96.147 E9.78467
G1 X140.835 Y95.853 E9.8074
G1 X137.519 Y94.08 E9.93247
G1 X136.86 Y93.682 E9.95807
G1 X136.313 Y93.274 E9.98077
G1 X133.41 Y90.891 E10.10569
G1 X132.841 Y90.372 E10.13131
G1 X132.386 Y89.867 E10.15391
G1 X130.003 Y86.965 E10.27881
G1 X129.547 Y86.346 E10.30438
G1 X129.195 Y85.755 E10.32726
G1 X127.424 Y82.439 E10.45229
G1 X127.097 Y81.743 E10.47787
G1 X126.87 Y81.102 E10.50049
G1 X125.78 Y77.51 E10.62534
G1 X125.595 Y76.763 E10.65093
G1 X125.497 Y76.088 E10.67362
G1 X125.128 Y72.35 E10.79855
G1 X125.092 Y71.582 E10.82412
G1 X125.128 Y70.897 E10.84693
G1 X125.497 Y67.154 E10.97203
G1 X125.612 Y66.394 E10.9976
G1 X125.78 Y65.731 E11.02034
G1 X126.87 Y62.139 E11.14519
G1 X127.131 Y61.416 E11.17076
G1 X127.424 Y60.801 E11.19342
G0 F6000 X127.777 Y60.99
G1 F1200 X129.549 Y57.673 E11.3185
G1 X129.936 Y57.033 E11.34337
G1 X130.313 Y56.529 E11.36431
G1 X132.695 Y53.628 E11.48915
G1 X133.2 Y53.076 E11.51404
G1 X133.662 Y52.66 E11.53471
G1 X136.565 Y50.276 E11.65965
G1 X137.168 Y49.833 E11.68454
G1 X137.709 Y49.512 E11.70546
G1 X141.025 Y47.74 E11.83051
G1 X141.703 Y47.423 E11.85541
G1 X142.292 Y47.215 E11.87618
G1 X145.885 Y46.125 E12.00107
G1 X146.611 Y45.947 E12.02593
G1 X147.232 Y45.858 E12.04679
G1 X150.972 Y45.49 E12.17179
G1 X151.719 Y45.456 E12.19666
G1 X152.342 Y45.49 E12.21741
G1 X156.082 Y45.858 E12.3424
G1 X156.822 Y45.971 E12.3673
G1 X157.429 Y46.125 E12.38813
G1 X161.022 Y47.215 E12.51301
G1 X161.725 Y47.471 E12.53789
G1 X162.288 Y47.74 E12.55865
G1 X165.605 Y49.512 E12.68373
G1 X166.245 Y49.899 E12.7086
G1 X166.749 Y50.276 E12.72954
G1 X169.65 Y52.658 E12.85438
G1 X170.202 Y53.163 E12.87927
G1 X170.619 Y53.627 E12.90002
G1 X173.002 Y56.53 E13.02493
G1 X173.445 Y57.132 E13.04979
G1 X173.764 Y57.671 E13.07063
G1 X175.537 Y60.988 E13.19572
G1 X175.854 Y61.666 E13.22061
G1 X176.062 Y62.255 E13.24139
G1 X177.152 Y65.847 E13.36624
G1 X177.331 Y66.574 E13.39114
G1 X177.42 Y67.195 E13.41201
G1 X177.788 Y70.937 E13.53707
G1 X177.822 Y71.684 E13.56194
G1 X177.788 Y72.308 E13.58272
G1 X177.42 Y76.047 E13.70769
G1 X177.307 Y76.786 E13.73255
G1 X177.152 Y77.396 E13.75348
G1 X176.919 Y78.163 E13.78015
G1 X176.759 Y79.889 E13.8378
G1 X176.65 Y80.629 E13.86268
G1 X176.463 Y81.354 E13.88758
G1 X176.2 Y82.054 E13.91245
G1 X175.827 Y82.785 E13.93975
G1 X173.964 Y85.961 E14.06221
G1 X173.551 Y86.585 E14.0871
G1 X173.154 Y87.074 E14.10805
G1 X172.03 Y88.337 E14.16428
G1 X170.825 Y89.808 E14.22753
G1 X170.321 Y90.361 E14.25241
G1 X169.844 Y90.79 E14.27375
G1 X169.612 Y90.98 E14.28373
G1 X169.399 Y91.147 E14.29273
G1 X166.647 Y93.228 E14.40748
G1 X166.027 Y93.647 E14.43237
G1 X165.383 Y93.99 E14.45664
G1 X165.25 Y94.052 E14.46152
G1 X163.529 Y94.89 E14.52519
G1 X162.316 Y95.538 E14.57093
G1 X161.639 Y95.854 E14.59578
G1 X161.041 Y96.065 E14.61687
G1 X160.137 Y96.338 E14.64828
G1 X159.886 Y96.409 E14.65695
G1 X158.942 Y96.656 E14.68941
G1 X157.43 Y97.115 E14.74196
G1 X156.704 Y97.294 E14.76683
G1 X156.082 Y97.383 E14.78773
G1 X152.342 Y97.751 E14.91272
G1 X151.595 Y97.785 E14.9376
G1 X150.972 Y97.751 E14.95835
G1 X147.232 Y97.383 E15.08334
G1 X146.492 Y97.27 E15.10824
G1 X145.885 Y97.116 E15.12907
G1 X142.292 Y96.026 E15.25395
G1 X141.589 Y95.77 E15.27883
G1 X141.023 Y95.5 E15.29969
G1 X137.707 Y93.727 E15.42476
G1 X137.068 Y93.34 E15.4496
G1 X136.567 Y92.965 E15.47042
G1 X133.664 Y90.582 E15.59534
G1 X133.112 Y90.077 E15.62022
G1 X132.695 Y89.613 E15.64097
G1 X130.312 Y86.711 E15.76586
G1 X129.869 Y86.109 E15.79072
G1 X129.547 Y85.567 E15.81169
G1 X127.776 Y82.251 E15.93673
G1 X127.46 Y81.573 E15.9616
G1 X127.253 Y80.986 E15.98231
G1 X126.163 Y77.394 E16.10716
G1 X125.984 Y76.667 E16.13206
G1 X125.895 Y76.049 E16.15283
G1 X125.526 Y72.311 E16.27776
G1 X125.492 Y71.563 E16.30266
G1 X125.526 Y70.936 E16.32355
G1 X125.895 Y67.193 E16.44864
G1 X126.008 Y66.454 E16.47351
G1 X126.163 Y65.847 E16.49434
G1 X127.253 Y62.255 E16.61919
G1 X127.508 Y61.552 E16.64407
G1 X127.777 Y60.99 E16.66479
G0 F6000 X128.13 Y61.178
G1 F1200 X129.902 Y57.861 E16.78987
G1 X130.279 Y57.24 E16.81403
G1 X130.622 Y56.783 E16.83304
G1 X133.004 Y53.882 E16.95788
G1 X133.495 Y53.347 E16.98203
G1 X133.916 Y52.969 E17.00085
G1 X136.819 Y50.585 E17.12579
G1 X137.405 Y50.156 E17.14995
G1 X137.897 Y49.865 E17.16896
G1 X141.213 Y48.093 E17.29401
G1 X141.872 Y47.786 E17.31819
G1 X142.408 Y47.598 E17.33708
G1 X146.001 Y46.508 E17.46196
G1 X146.707 Y46.336 E17.48613
G1 X147.271 Y46.256 E17.50508
G1 X151.011 Y45.888 E17.63007
G1 X151.736 Y45.856 E17.65421
G1 X152.303 Y45.888 E17.6731
G1 X156.043 Y46.256 E17.79809
G1 X156.761 Y46.367 E17.82226
G1 X157.313 Y46.508 E17.84121
G1 X160.906 Y47.598 E17.96609
G1 X161.588 Y47.847 E17.99024
G1 X162.1 Y48.093 E18.00913
G1 X165.417 Y49.865 E18.13421
G1 X166.038 Y50.242 E18.15837
G1 X166.495 Y50.585 E18.17738
G1 X169.396 Y52.967 E18.30222
G1 X169.931 Y53.458 E18.32637
G1 X170.309 Y53.88 E18.34522
G1 X172.692 Y56.783 E18.47014
G1 X173.122 Y57.369 E18.49431
G1 X173.412 Y57.86 E18.51328
G1 X175.185 Y61.177 E18.63837
G1 X175.491 Y61.835 E18.66251
G1 X175.68 Y62.372 E18.68144
G1 X176.77 Y65.964 E18.80629
G1 X176.942 Y66.669 E18.83043
G1 X177.022 Y67.234 E18.84941
G1 X177.39 Y70.976 E18.97447
G1 X177.422 Y71.702 E18.99864
G1 X177.39 Y72.268 E19.01749
G1 X177.022 Y76.007 E19.14245
G1 X176.911 Y76.725 E19.16662
G1 X176.769 Y77.28 E19.18567
G1 X176.525 Y78.083 E19.21359
G1 X176.361 Y79.852 E19.27268
G1 X176.254 Y80.571 E19.29685
G1 X176.069 Y81.273 E19.321
G1 X175.808 Y81.951 E19.34516
G1 X175.482 Y82.582 E19.36878
G1 X173.619 Y85.758 E19.49125
G1 X173.217 Y86.364 E19.51544
G1 X172.855 Y86.808 E19.53449
G1 X171.739 Y88.062 E19.59033
G1 X170.516 Y89.555 E19.65452
G1 X170.025 Y90.091 E19.67869
G1 X169.591 Y90.48 E19.69808
G1 X169.359 Y90.67 E19.70805
G1 X169.158 Y90.828 E19.71656
G1 X166.406 Y92.909 E19.83131
G1 X165.803 Y93.315 E19.85549
G1 X165.214 Y93.627 E19.87766
G1 X165.081 Y93.689 E19.88254
G1 X163.355 Y94.529 E19.94638
G1 X162.128 Y95.185 E19.99266
G1 X161.469 Y95.491 E20.01683
G1 X160.925 Y95.682 E20.036
G1 X160.021 Y95.955 E20.06741
G1 X159.784 Y96.022 E20.0756
G1 X158.858 Y96.264 E20.10743
G1 X157.314 Y96.733 E20.16111
G1 X156.608 Y96.905 E20.18527
G1 X156.043 Y96.985 E20.20425
G1 X152.303 Y97.353 E20.32925
G1 X151.578 Y97.385 E20.35338
G1 X151.011 Y97.353 E20.37227
G1 X147.271 Y96.985 E20.49727
G1 X146.553 Y96.874 E20.52143
G1 X146.001 Y96.733 E20.54038
G1 X142.408 Y95.643 E20.66526
G1 X141.726 Y95.394 E20.68941
G1 X141.212 Y95.147 E20.70838
G1 X137.896 Y93.374 E20.83344
G1 X137.275 Y92.997 E20.85761
G1 X136.82 Y92.655 E20.87654
G1 X133.917 Y90.272 E21.00146
G1 X133.382 Y89.781 E21.02561
G1 X133.004 Y89.359 E21.04445
G1 X130.621 Y86.457 E21.16934
G1 X130.192 Y85.872 E21.19347
G1 X129.9 Y85.378 E21.21256
G1 X128.129 Y82.062 E21.33759
G1 X127.823 Y81.404 E21.36173
G1 X127.635 Y80.869 E21.38059
G1 X126.545 Y77.277 E21.50544
G1 X126.373 Y76.572 E21.52958
G1 X126.293 Y76.009 E21.54849
G1 X125.924 Y72.271 E21.67342
G1 X125.892 Y71.546 E21.69756
G1 X125.924 Y70.975 E21.71658
G1 X126.293 Y67.232 E21.84167
G1 X126.404 Y66.515 E21.86581
G1 X126.545 Y65.964 E21.88472
G1 X127.635 Y62.372 E22.00957
G1 X127.884 Y61.689 E22.03375
G1 X128.13 Y61.178 E22.05262
G0 F6000 X128.482 Y61.367
G1 F1200 X130.254 Y58.05 E22.17769
G1 X130.621 Y57.448 E22.20114
G1 X130.931 Y57.037 E22.21827
G1 X133.313 Y54.136 E22.34311
G1 X133.79 Y53.618 E22.36653
G1 X134.17 Y53.279 E22.38347
G1 X137.073 Y50.895 E22.50841
G1 X137.642 Y50.479 E22.53185
G1 X138.086 Y50.218 E22.54898
G1 X141.402 Y48.446 E22.67403
G1 X142.041 Y48.15 E22.69746
G1 X142.524 Y47.981 E22.71448
G1 X146.117 Y46.891 E22.83936
G1 X146.801 Y46.725 E22.86277
G1 X147.31 Y46.654 E22.87986
G1 X151.05 Y46.286 E23.00486
G1 X151.753 Y46.257 E23.02826
G1 X152.264 Y46.286 E23.04528
G1 X156.004 Y46.654 E23.17027
G1 X156.7 Y46.762 E23.1937
G1 X157.197 Y46.891 E23.21078
G1 X160.79 Y47.981 E23.33566
G1 X161.451 Y48.223 E23.35907
G1 X161.911 Y48.445 E23.37606
G1 X165.228 Y50.217 E23.50114
G1 X165.83 Y50.584 E23.52459
G1 X166.241 Y50.894 E23.54171
G1 X169.142 Y53.276 E23.66656
G1 X169.66 Y53.753 E23.68998
G1 X170 Y54.134 E23.70696
G1 X172.383 Y57.037 E23.83188
G1 X172.798 Y57.606 E23.85531
G1 X173.059 Y58.048 E23.87238
G1 X174.832 Y61.365 E23.99747
G1 X175.128 Y62.004 E24.0209
G1 X175.297 Y62.488 E24.03795
G1 X176.387 Y66.08 E24.1628
G1 X176.553 Y66.764 E24.18621
G1 X176.624 Y67.273 E24.2033
G1 X176.992 Y71.015 E24.32836
G1 X177.021 Y71.719 E24.3518
G1 X176.992 Y72.229 E24.36879
G1 X176.624 Y75.968 E24.49375
G1 X176.516 Y76.664 E24.51717
G1 X176.386 Y77.163 E24.53432
G1 X176.131 Y78.001 E24.56346
G1 X175.963 Y79.816 E24.62408
G1 X175.858 Y80.512 E24.64749
G1 X175.675 Y81.191 E24.67088
G1 X175.416 Y81.846 E24.69431
G1 X175.137 Y82.38 E24.71435
G1 X173.274 Y85.556 E24.83682
G1 X172.884 Y86.142 E24.86023
G1 X172.556 Y86.542 E24.87743
G1 X171.435 Y87.801 E24.9335
G1 X170.206 Y89.302 E24.99802
G1 X169.73 Y89.82 E25.02142
G1 X169.337 Y90.171 E25.03895
G1 X169.105 Y90.361 E25.04892
G1 X168.917 Y90.509 E25.05688
G1 X166.165 Y92.59 E25.17164
G1 X165.58 Y92.982 E25.19506
G1 X165.045 Y93.264 E25.21517
G1 X163.149 Y94.185 E25.28528
G1 X161.939 Y94.832 E25.33092
G1 X161.301 Y95.128 E25.35431
G1 X160.809 Y95.299 E25.37163
G1 X159.905 Y95.572 E25.40304
G1 X159.683 Y95.635 E25.41072
G1 X158.743 Y95.881 E25.44303
G1 X157.198 Y96.35 E25.49674
G1 X156.513 Y96.516 E25.52018
G1 X156.004 Y96.587 E25.53727
G1 X152.264 Y96.955 E25.66227
G1 X151.561 Y96.984 E25.68567
G1 X151.05 Y96.955 E25.70269
G1 X147.31 Y96.587 E25.82768
G1 X146.614 Y96.479 E25.85111
G1 X146.117 Y96.35 E25.86819
G1 X142.524 Y95.26 E25.99307
G1 X141.863 Y95.018 E26.01648
G1 X141.401 Y94.795 E26.03355
G1 X138.085 Y93.022 E26.15861
