;FLAVOR:Marlin
;TIME:9333
;Filament used: 5.69188m
;Layer height: 0.2
;MINX:68.37
;MINY:43.303
;MINZ:0.2
;MAXX:173.157
;MAXY:133.265
;MAXZ:31.6
;Generated with Cura_SteamEngine master
M140 S50
M105
M190 S50
M104 S200
M105
M109 S200
M82 ;absolute extrusion mode
; Ender 3 Custom Start G-code
G92 E0 ; Reset Extruder
G28 ; Home all axes
G29 P4 X4 Y4 ; Auto Level 4x4 grid
G1 Z2.0 F3000 ; Move Z Axis up little to prevent scratching of Heat Bed
G1 X0.1 Y20 Z0.3 F5000.0 ; Move to start position
G1 X0.1 Y200.0 Z0.3 F1500.0 E15 ; Draw the first line
G1 X0.4 Y200.0 Z0.3 F5000.0 ; Move to side a little
G1 X0.4 Y20 Z0.3 F1500.0 E30 ; Draw the second line
G92 E0 ; Reset Extruder
G1 Z2.0 F3000 ; Move Z Axis up little to prevent scratching of Heat Bed
G1 X5 Y20 Z0.3 F5000.0 ; Move over to prevent blob squish
G92 E0
G92 E0
G1 F2700 E-5
;LAYER_COUNT:158
;LAYER:0
M107
G0 F6000 X123.354 Y58.424 Z0.2
;TYPE:SKIRT
G1 F2700 E0
G1 F1200 X123.521 Y58.072 E0.01296
G1 X123.926 Y57.269 E0.04287
G1 X124.105 Y56.934 E0.0555
G1 X124.548 Y56.153 E0.08537
G1 X124.734 Y55.842 E0.09742
G1 X125.213 Y55.082 E0.1273
G1 X125.44 Y54.742 E0.1409
G1 X125.959 Y54.007 E0.17082
G1 X126.188 Y53.699 E0.18359
G1 X126.749 Y52.982 E0.21387
G1 X126.983 Y52.697 E0.22613
G1 X127.563 Y52.024 E0.25568
G1 X127.819 Y51.741 E0.26838
G1 X128.438 Y51.09 E0.29825
G1 X128.716 Y50.813 E0.31131
G1 X129.368 Y50.193 E0.34123
G1 X129.647 Y49.94 E0.35376
G1 X130.326 Y49.354 E0.38359
G1 X130.624 Y49.11 E0.3964
G1 X131.334 Y48.556 E0.42635
G1 X131.64 Y48.328 E0.43904
G1 X132.374 Y47.811 E0.46891
G1 X132.692 Y47.599 E0.48162
G1 X133.453 Y47.117 E0.51158
G1 X133.785 Y46.918 E0.52445
G1 X134.566 Y46.476 E0.5543
G1 X134.899 Y46.298 E0.56686
G1 X135.703 Y45.893 E0.5968
G1 X136.051 Y45.728 E0.60961
G1 X136.872 Y45.364 E0.63948
G1 X137.24 Y45.212 E0.65272
G1 X138.116 Y44.876 E0.68393
G1 X138.456 Y44.755 E0.69593
G1 X139.274 Y44.484 E0.72459
G1 X139.658 Y44.367 E0.73794
G1 X140.523 Y44.129 E0.76778
G1 X140.901 Y44.036 E0.78073
G1 X141.815 Y43.833 E0.81187
G1 X142.17 Y43.762 E0.82391
G1 X143.021 Y43.614 E0.85264
G1 X143.393 Y43.559 E0.86515
G1 X144.284 Y43.448 E0.89501
G1 X144.675 Y43.409 E0.90808
G1 X145.571 Y43.343 E0.93796
G1 X145.968 Y43.324 E0.95118
G1 X146.901 Y43.303 E0.98222
G1 X147.266 Y43.303 E0.99436
G1 X148.131 Y43.324 E1.02314
G1 X148.516 Y43.343 E1.03596
G1 X149.411 Y43.409 E1.06581
G1 X149.799 Y43.448 E1.07878
G1 X150.692 Y43.559 E1.10871
G1 X151.067 Y43.614 E1.12132
G1 X151.952 Y43.768 E1.15119
G1 X152.321 Y43.842 E1.16371
G1 X153.2 Y44.039 E1.19367
G1 X153.575 Y44.133 E1.20653
G1 X154.442 Y44.373 E1.23645
G1 X154.804 Y44.482 E1.24903
G1 X155.656 Y44.763 E1.27886
G1 X156.017 Y44.892 E1.29162
G1 X156.858 Y45.216 E1.32159
G1 X157.219 Y45.366 E1.33459
G1 X158.039 Y45.73 E1.36443
G1 X158.376 Y45.889 E1.37683
G1 X159.178 Y46.292 E1.40668
G1 X159.523 Y46.477 E1.4197
G1 X160.306 Y46.921 E1.44964
G1 X160.637 Y47.119 E1.46247
G1 X161.419 Y47.615 E1.49327
G1 X161.737 Y47.828 E1.506
G1 X162.45 Y48.331 E1.53502
G1 X162.75 Y48.554 E1.54745
G1 X163.458 Y49.106 E1.57731
G1 X163.759 Y49.353 E1.59026
G1 X164.439 Y49.94 E1.62014
G1 X164.73 Y50.204 E1.63321
G1 X165.4 Y50.844 E1.66402
G1 X165.656 Y51.1 E1.67607
G1 X166.258 Y51.731 E1.70507
G1 X166.526 Y52.027 E1.71835
G1 X167.113 Y52.709 E1.74828
G1 X167.351 Y53 E1.76079
G1 X167.904 Y53.709 E1.79069
G1 X168.127 Y54.009 E1.80312
G1 X168.645 Y54.743 E1.833
G1 X168.868 Y55.076 E1.84633
G1 X169.361 Y55.857 E1.87705
G1 X169.554 Y56.181 E1.8896
G1 X169.985 Y56.943 E1.91871
G1 X170.159 Y57.267 E1.93095
G1 X170.564 Y58.069 E1.96083
G1 X170.733 Y58.427 E1.974
G1 X171.097 Y59.249 E2.0039
G1 X171.247 Y59.613 E2.01699
G1 X171.577 Y60.473 E2.04763
G1 X171.707 Y60.836 E2.06045
G1 X171.992 Y61.705 E2.09087
G1 X172.098 Y62.059 E2.10316
G1 X172.327 Y62.888 E2.13177
G1 X172.419 Y63.255 E2.14435
G1 X172.621 Y64.154 E2.175
G1 X172.699 Y64.547 E2.18832
G1 X172.851 Y65.434 E2.21825
G1 X172.906 Y65.806 E2.23076
G1 X173.016 Y66.707 E2.26095
G1 X173.052 Y67.077 E2.27332
G1 X173.116 Y67.943 E2.3022
G1 X173.135 Y68.331 E2.31512
G1 X173.157 Y69.25 E2.34569
G1 X173.157 Y69.632 E2.3584
G1 X173.135 Y70.51 E2.38761
G1 X173.116 Y70.888 E2.4002
G1 X173.05 Y71.784 E2.43008
G1 X173.012 Y72.165 E2.44281
G1 X172.902 Y73.058 E2.47274
G1 X172.845 Y73.445 E2.48575
G1 X172.687 Y74.35 E2.51631
G1 X172.611 Y74.727 E2.5291
G1 X172.417 Y75.586 E2.55839
G1 X172.324 Y75.957 E2.57111
G1 X172.076 Y76.849 E2.6019
G1 X171.968 Y77.205 E2.61428
G1 X171.695 Y78.032 E2.64324
G1 X171.566 Y78.393 E2.65599
G1 X171.236 Y79.249 E2.68651
G1 X171.087 Y79.608 E2.69943
G1 X170.73 Y80.412 E2.72869
G1 X170.564 Y80.762 E2.74158
G1 X170.146 Y81.59 E2.77243
G1 X169.967 Y81.924 E2.78503
G1 X169.537 Y82.682 E2.81402
G1 X169.337 Y83.015 E2.82693
G1 X168.846 Y83.788 E2.85739
G1 X168.637 Y84.101 E2.86991
G1 X168.118 Y84.837 E2.89986
G1 X167.884 Y85.152 E2.91292
G1 X167.324 Y85.867 E2.94312
G1 X167.091 Y86.149 E2.95529
G1 X166.523 Y86.808 E2.98423
G1 X166.256 Y87.103 E2.99746
G1 X165.622 Y87.767 E3.02799
G1 X165.365 Y88.024 E3.04008
G1 X164.715 Y88.644 E3.06996
G1 X164.42 Y88.912 E3.08322
G1 X163.752 Y89.487 E3.11253
G1 X163.461 Y89.724 E3.12501
G1 X162.751 Y90.278 E3.15497
G1 X162.436 Y90.512 E3.16802
G1 X161.687 Y91.038 E3.19846
G1 X161.373 Y91.247 E3.21101
G1 X160.614 Y91.727 E3.24087
G1 X160.276 Y91.929 E3.25397
G1 X159.485 Y92.375 E3.28417
G1 X159.167 Y92.545 E3.29617
G1 X158.388 Y92.938 E3.32519
G1 X158.022 Y93.111 E3.33865
G1 X157.183 Y93.481 E3.36915
G1 X156.841 Y93.622 E3.38145
G1 X156.003 Y93.945 E3.41132
G1 X155.631 Y94.078 E3.42446
G1 X154.769 Y94.361 E3.45464
G1 X154.416 Y94.467 E3.4669
G1 X153.574 Y94.7 E3.49596
G1 X153.197 Y94.795 E3.50889
G1 X152.303 Y94.995 E3.53936
G1 X151.926 Y95.069 E3.55213
G1 X151.039 Y95.222 E3.58207
G1 X150.66 Y95.278 E3.59481
G1 X149.761 Y95.388 E3.62494
G1 X149.37 Y95.426 E3.638
G1 X148.46 Y95.491 E3.66835
G1 X148.094 Y95.509 E3.68054
G1 X147.233 Y95.53 E3.70918
G1 X146.852 Y95.53 E3.72185
G1 X145.953 Y95.508 E3.75176
G1 X145.57 Y95.489 E3.76452
G1 X144.675 Y95.423 E3.79437
G1 X144.295 Y95.385 E3.80707
G1 X143.402 Y95.275 E3.83699
G1 X143.02 Y95.219 E3.84984
G1 X142.134 Y95.065 E3.87975
G1 X141.777 Y94.994 E3.89185
G1 X141.263 Y94.88 E3.90936
G1 X139.294 Y94.827 E3.97488
G1 X138.506 Y94.766 E4.00116
G1 X137.729 Y94.626 E4.02742
G1 X136.97 Y94.408 E4.05369
G1 X136.237 Y94.114 E4.07996
G1 X135.815 Y93.904 E4.09563
G1 X135.183 Y93.565 E4.11949
G1 X134.826 Y93.361 E4.13316
G1 X132.499 Y91.95 E4.22368
G1 X131.845 Y91.507 E4.24995
G1 X131.282 Y91.039 E4.2743
G1 X130.369 Y90.205 E4.31543
G1 X128.925 Y89.02 E4.37756
G1 X128.619 Y88.755 E4.39102
G1 X128.495 Y88.642 E4.3966
G1 X127.939 Y88.081 E4.42287
G1 X127.465 Y87.497 E4.44789
G1 X125.224 Y84.449 E4.57372
G1 X124.629 Y83.505 E4.61083
G1 X123.837 Y82.023 E4.66672
G1 X123.652 Y81.654 E4.68045
G1 X122.843 Y79.926 E4.74391
G1 X122.545 Y79.195 E4.77016
G1 X122.331 Y78.477 E4.79508
G1 X121.851 Y76.518 E4.86217
G1 X121.474 Y75.27 E4.90553
G1 X121.284 Y74.503 E4.93181
G1 X121.189 Y73.884 E4.95264
G1 X121.174 Y73.75 E4.95712
G1 X121.134 Y73.231 E4.97444
G1 X121.094 Y72.332 E5.00437
G1 X121.073 Y72.163 E5.01003
G1 X121.036 Y71.785 E5.02266
G1 X120.97 Y70.889 E5.05255
G1 X120.951 Y70.496 E5.06563
G1 X120.933 Y69.741 E5.09075
G1 X120.929 Y69.216 E5.10821
G1 X120.952 Y68.318 E5.13809
G1 X120.97 Y67.946 E5.15048
G1 X121.036 Y67.049 E5.18039
G1 X121.074 Y66.665 E5.19323
G1 X121.184 Y65.774 E5.22309
G1 X121.239 Y65.404 E5.23553
G1 X121.392 Y64.517 E5.26547
G1 X121.47 Y64.125 E5.27876
G1 X121.668 Y63.248 E5.30866
G1 X121.76 Y62.881 E5.32125
G1 X122 Y62.016 E5.3511
G1 X122.109 Y61.658 E5.36355
G1 X122.391 Y60.803 E5.39349
G1 X122.518 Y60.447 E5.40607
G1 X122.841 Y59.607 E5.436
G1 X122.99 Y59.245 E5.44902
G1 X123.354 Y58.424 E5.47889
G0 F6000 X123.72 Y58.586
G1 F1200 X123.878 Y58.253 E5.49115
G1 X124.283 Y57.45 E5.52106
G1 X124.453 Y57.131 E5.53308
G1 X124.896 Y56.35 E5.56295
G1 X125.073 Y56.055 E5.57439
G1 X125.552 Y55.295 E5.60427
G1 X125.767 Y54.973 E5.61715
G1 X126.286 Y54.238 E5.64707
G1 X126.503 Y53.946 E5.65917
G1 X127.064 Y53.229 E5.68945
G1 X127.286 Y52.958 E5.7011
G1 X127.866 Y52.285 E5.73065
G1 X128.109 Y52.017 E5.74269
G1 X128.728 Y51.366 E5.77256
G1 X128.992 Y51.102 E5.78498
G1 X129.644 Y50.482 E5.81491
G1 X129.908 Y50.243 E5.82675
G1 X130.587 Y49.657 E5.85658
G1 X130.87 Y49.425 E5.86875
G1 X131.58 Y48.871 E5.89871
G1 X131.871 Y48.655 E5.91076
G1 X132.605 Y48.138 E5.94062
G1 X132.906 Y47.936 E5.95268
G1 X133.667 Y47.454 E5.98264
G1 X133.982 Y47.266 E5.99484
G1 X134.763 Y46.824 E6.02469
G1 X135.079 Y46.655 E6.03661
G1 X135.883 Y46.25 E6.06655
G1 X136.213 Y46.094 E6.07869
G1 X137.034 Y45.73 E6.10856
G1 X137.383 Y45.586 E6.12112
G1 X138.259 Y45.25 E6.15232
G1 X138.582 Y45.134 E6.16374
G1 X139.4 Y44.863 E6.1924
G1 X139.764 Y44.753 E6.20505
G1 X140.629 Y44.515 E6.23488
G1 X140.988 Y44.426 E6.24719
G1 X141.902 Y44.223 E6.27833
G1 X142.238 Y44.156 E6.28972
G1 X143.089 Y44.008 E6.31845
G1 X143.442 Y43.956 E6.33032
G1 X144.333 Y43.845 E6.36018
G1 X144.704 Y43.808 E6.37258
G1 X145.6 Y43.742 E6.40247
G1 X145.977 Y43.724 E6.41502
G1 X146.91 Y43.703 E6.44606
G1 X147.257 Y43.703 E6.4576
G1 X148.122 Y43.724 E6.48638
G1 X148.486 Y43.742 E6.4985
G1 X149.381 Y43.808 E6.52835
G1 X149.75 Y43.845 E6.54068
G1 X150.643 Y43.956 E6.57061
G1 X150.999 Y44.009 E6.58258
G1 X151.884 Y44.163 E6.61246
G1 X152.233 Y44.232 E6.62429
G1 X153.112 Y44.429 E6.65425
G1 X153.468 Y44.518 E6.66646
G1 X154.335 Y44.758 E6.69638
G1 X154.679 Y44.862 E6.70833
G1 X155.531 Y45.143 E6.73817
G1 X155.873 Y45.266 E6.75026
G1 X156.714 Y45.59 E6.78024
G1 X157.056 Y45.731 E6.79254
G1 X157.876 Y46.095 E6.82238
G1 X158.197 Y46.247 E6.83419
G1 X158.999 Y46.65 E6.86405
G1 X159.326 Y46.825 E6.87638
G1 X160.109 Y47.269 E6.90632
G1 X160.423 Y47.457 E6.91849
G1 X161.205 Y47.953 E6.94929
G1 X161.507 Y48.155 E6.96138
G1 X162.22 Y48.658 E6.9904
G1 X162.504 Y48.869 E7.00217
G1 X163.212 Y49.421 E7.03203
G1 X163.498 Y49.655 E7.04432
G1 X164.178 Y50.242 E7.07419
G1 X164.453 Y50.493 E7.08658
G1 X165.123 Y51.133 E7.1174
G1 X165.366 Y51.376 E7.12882
G1 X165.968 Y52.007 E7.15783
G1 X166.223 Y52.288 E7.17045
G1 X166.81 Y52.97 E7.20038
G1 X167.036 Y53.246 E7.21225
G1 X167.589 Y53.955 E7.24215
G1 X167.8 Y54.239 E7.25392
G1 X168.318 Y54.973 E7.2838
G1 X168.53 Y55.29 E7.29648
G1 X169.023 Y56.071 E7.3272
G1 X169.206 Y56.378 E7.33909
G1 X169.637 Y57.14 E7.36821
G1 X169.802 Y57.447 E7.3798
G1 X170.207 Y58.249 E7.40968
G1 X170.367 Y58.589 E7.42218
G1 X170.731 Y59.411 E7.45208
G1 X170.874 Y59.756 E7.4645
G1 X171.204 Y60.616 E7.49514
G1 X171.327 Y60.961 E7.50732
G1 X171.612 Y61.83 E7.53774
G1 X171.713 Y62.166 E7.54941
G1 X171.942 Y62.995 E7.57801
G1 X172.029 Y63.343 E7.58994
G1 X172.231 Y64.242 E7.62059
G1 X172.305 Y64.614 E7.63321
G1 X172.457 Y65.501 E7.66314
G1 X172.508 Y65.854 E7.675
G1 X172.618 Y66.755 E7.70519
G1 X172.653 Y67.107 E7.71696
G1 X172.717 Y67.973 E7.74584
G1 X172.735 Y68.341 E7.75809
G1 X172.757 Y69.26 E7.78867
G1 X172.757 Y69.622 E7.80071
G1 X172.735 Y70.5 E7.82992
G1 X172.717 Y70.859 E7.84187
G1 X172.651 Y71.755 E7.87176
G1 X172.615 Y72.116 E7.88382
G1 X172.505 Y73.009 E7.91375
G1 X172.451 Y73.377 E7.92612
G1 X172.293 Y74.282 E7.95667
G1 X172.221 Y74.639 E7.96879
G1 X172.027 Y75.498 E7.99808
G1 X171.939 Y75.85 E8.01014
G1 X171.691 Y76.742 E8.04094
G1 X171.588 Y77.08 E8.05269
G1 X171.315 Y77.907 E8.08166
G1 X171.193 Y78.249 E8.09373
G1 X170.863 Y79.105 E8.12425
G1 X170.721 Y79.446 E8.13653
G1 X170.364 Y80.25 E8.16579
G1 X170.207 Y80.582 E8.17801
G1 X169.789 Y81.41 E8.20886
G1 X169.619 Y81.726 E8.22079
G1 X169.189 Y82.484 E8.24978
G1 X168.999 Y82.801 E8.26207
G1 X168.508 Y83.574 E8.29253
G1 X168.31 Y83.871 E8.3044
G1 X167.791 Y84.607 E8.33435
G1 X167.569 Y84.905 E8.34671
G1 X167.009 Y85.62 E8.37692
G1 X166.788 Y85.888 E8.38847
G1 X166.22 Y86.547 E8.41741
G1 X165.967 Y86.826 E8.42993
G1 X165.333 Y87.49 E8.46047
G1 X165.089 Y87.735 E8.47197
G1 X164.439 Y88.355 E8.50185
G1 X164.159 Y88.608 E8.5144
G1 X163.491 Y89.183 E8.54371
G1 X163.215 Y89.409 E8.55558
G1 X162.505 Y89.963 E8.58553
G1 X162.206 Y90.185 E8.59792
G1 X161.457 Y90.711 E8.62836
G1 X161.159 Y90.909 E8.64026
G1 X160.4 Y91.389 E8.67013
G1 X160.08 Y91.581 E8.68254
G1 X159.289 Y92.027 E8.71274
G1 X158.987 Y92.188 E8.72413
G1 X158.208 Y92.581 E8.75315
G1 X157.861 Y92.745 E8.76591
G1 X157.022 Y93.115 E8.79641
G1 X156.697 Y93.249 E8.8081
G1 X155.859 Y93.572 E8.83797
G1 X155.506 Y93.698 E8.85044
G1 X154.644 Y93.981 E8.88061
G1 X154.31 Y94.082 E8.89222
G1 X153.468 Y94.315 E8.92128
G1 X153.11 Y94.404 E8.93355
G1 X152.216 Y94.604 E8.96402
G1 X151.858 Y94.675 E8.97616
G1 X150.971 Y94.828 E9.00609
G1 X150.612 Y94.881 E9.01816
G1 X149.713 Y94.991 E9.04829
G1 X149.341 Y95.027 E9.06072
G1 X148.431 Y95.092 E9.09106
G1 X148.084 Y95.109 E9.10262
G1 X147.223 Y95.13 E9.13126
G1 X146.862 Y95.13 E9.14327
G1 X145.963 Y95.108 E9.17318
G1 X145.6 Y95.09 E9.18527
G1 X144.705 Y95.024 E9.21512
G1 X144.344 Y94.988 E9.22718
G1 X143.451 Y94.878 E9.25711
G1 X143.089 Y94.825 E9.26928
G1 X142.203 Y94.671 E9.29919
G1 X141.864 Y94.604 E9.31068
G1 X141.309 Y94.481 E9.32959
G1 X139.304 Y94.427 E9.3963
G1 X138.538 Y94.367 E9.42185
G1 X137.781 Y94.227 E9.44746
G1 X137.043 Y94.01 E9.47304
G1 X136.004 Y93.551 E9.51082
G1 X135.372 Y93.212 E9.53468
G1 X135.033 Y93.019 E9.54765
G1 X132.706 Y91.608 E9.63816
G1 X132.07 Y91.175 E9.66375
G1 X131.552 Y90.743 E9.68619
G1 X130.641 Y89.91 E9.72725
G1 X129.179 Y88.711 E9.79013
G1 X128.889 Y88.46 E9.80289
G1 X128.765 Y88.347 E9.80847
G1 X128.224 Y87.8 E9.83406
G1 X127.787 Y87.26 E9.85716
G1 X125.546 Y84.212 E9.98299
G1 X124.982 Y83.317 E10.01818
G1 X124.19 Y81.835 E10.07407
G1 X124.014 Y81.485 E10.0871
G1 X123.205 Y79.757 E10.15056
G1 X122.916 Y79.044 E10.17614
G1 X122.72 Y78.381 E10.19914
G1 X122.239 Y76.421 E10.26626
G1 X121.857 Y75.154 E10.31028
G1 X121.673 Y74.407 E10.33587
G1 X121.587 Y73.839 E10.35497
G1 X121.572 Y73.705 E10.35946
G1 X121.533 Y73.213 E10.37587
G1 X121.492 Y72.291 E10.40657
G1 X121.47 Y72.114 E10.4125
G1 X121.435 Y71.756 E10.42446
G1 X121.369 Y70.86 E10.45435
G1 X121.351 Y70.487 E10.46677
G1 X121.332 Y69.724 E10.49215
G1 X121.328 Y69.227 E10.50868
G1 X121.351 Y68.329 E10.53856
G1 X121.369 Y67.975 E10.55035
G1 X121.435 Y67.078 E10.58027
G1 X121.471 Y66.714 E10.59243
G1 X121.581 Y65.823 E10.62229
G1 X121.633 Y65.472 E10.63409
G1 X121.786 Y64.585 E10.66403
G1 X121.86 Y64.213 E10.67664
G1 X122.058 Y63.336 E10.70655
G1 X122.145 Y62.988 E10.71848
G1 X122.385 Y62.123 E10.74834
G1 X122.488 Y61.783 E10.76015
G1 X122.77 Y60.928 E10.7901
G1 X122.891 Y60.59 E10.80204
G1 X123.214 Y59.75 E10.83197
G1 X123.356 Y59.407 E10.84432
G1 X123.72 Y58.586 E10.87419
G0 F6000 X124.086 Y58.748
G1 F1200 X124.235 Y58.433 E10.88578
G1 X124.64 Y57.63 E10.91569
G1 X124.801 Y57.328 E10.92707
G1 X125.244 Y56.547 E10.95694
G1 X125.411 Y56.269 E10.96772
G1 X125.89 Y55.509 E10.9976
G1 X126.094 Y55.203 E11.00983
G1 X126.613 Y54.468 E11.03976
G1 X126.818 Y54.192 E11.0512
G1 X127.379 Y53.475 E11.08147
G1 X127.589 Y53.219 E11.09249
G1 X128.169 Y52.546 E11.12204
G1 X128.399 Y52.293 E11.13341
G1 X129.018 Y51.642 E11.16329
G1 X129.267 Y51.392 E11.17502
G1 X129.919 Y50.772 E11.20495
G1 X130.169 Y50.546 E11.21616
G1 X130.848 Y49.96 E11.24599
G1 X131.116 Y49.74 E11.25752
G1 X131.826 Y49.186 E11.28747
G1 X132.101 Y48.982 E11.29886
G1 X132.835 Y48.465 E11.32872
G1 X133.12 Y48.274 E11.34013
G1 X133.881 Y47.792 E11.37009
G1 X134.179 Y47.614 E11.38164
G1 X134.96 Y47.172 E11.41149
G1 X135.259 Y47.012 E11.42277
G1 X136.063 Y46.607 E11.45271
G1 X136.375 Y46.46 E11.46418
G1 X137.196 Y46.096 E11.49405
G1 X137.526 Y45.959 E11.50593
G1 X138.402 Y45.623 E11.53714
G1 X138.708 Y45.514 E11.54794
G1 X139.526 Y45.243 E11.57661
G1 X139.87 Y45.139 E11.58856
G1 X140.735 Y44.901 E11.6184
G1 X141.074 Y44.817 E11.63001
G1 X141.988 Y44.614 E11.66115
G1 X142.307 Y44.551 E11.67197
G1 X143.158 Y44.403 E11.7007
G1 X143.492 Y44.353 E11.71193
G1 X144.383 Y44.242 E11.74179
G1 X144.734 Y44.207 E11.75353
G1 X145.63 Y44.141 E11.78341
G1 X145.986 Y44.124 E11.79526
G1 X146.919 Y44.103 E11.8263
