;FLAVOR:Marlin
;TIME:726
;Filament used: 0.357634m
;Layer height: 0.2
;MINX:94.01
;MINY:94.009
;MINZ:0.2
;MAXX:140.991
;MAXY:140.991
;MAXZ:4.6
;Generated with Cura_SteamEngine master
M140 S50
M105
M190 S50
M104 S200
M105
M109 S200
M82 ;absolute extrusion mode
; Ender 3 Custom Start G-code
G92 E0 ; Reset Extruder
G28 ; Home all axes
G29 P4 X4 Y4 ; Auto Level 4x4 grid
G1 Z2.0 F3000 ; Move Z Axis up little to prevent scratching of Heat Bed
G1 X0.1 Y20 Z0.3 F5000.0 ; Move to start position
G1 X0.1 Y200.0 Z0.3 F1500.0 E15 ; Draw the first line
G1 X0.4 Y200.0 Z0.3 F5000.0 ; Move to side a little
G1 X0.4 Y20 Z0.3 F1500.0 E30 ; Draw the second line
G92 E0 ; Reset Extruder
G1 Z2.0 F3000 ; Move Z Axis up little to prevent scratching of Heat Bed
G1 X5 Y20 Z0.3 F5000.0 ; Move over to prevent blob squish
G92 E0
G92 E0
G1 F2700 E-5
;LAYER_COUNT:23
;LAYER:0
M107
G0 F6000 X100.95 Y100.828 Z0.2
;TYPE:SKIRT
G1 F2700 E0
G1 F1200 X101.327 Y100.462 E0.01748
G1 X101.758 Y100.063 E0.03701
G1 X102.174 Y99.697 E0.05544
G1 X102.669 Y99.283 E0.0769
G1 X103.091 Y98.947 E0.09484
G1 X103.575 Y98.581 E0.11503
G1 X103.991 Y98.282 E0.13207
G1 X104.487 Y97.942 E0.15207
G1 X104.951 Y97.641 E0.17046
G1 X105.438 Y97.342 E0.18947
G1 X105.78 Y97.139 E0.2027
G1 X106.488 Y96.75 E0.22957
G1 X106.95 Y96.511 E0.24687
G1 X107.505 Y96.241 E0.26739
G1 X108.006 Y96.013 E0.2857
G1 X108.567 Y95.774 E0.30598
G1 X109.067 Y95.575 E0.32388
G1 X109.66 Y95.356 E0.34491
G1 X110.19 Y95.176 E0.36352
G1 X110.782 Y94.991 E0.38415
G1 X111.29 Y94.845 E0.40173
G1 X111.885 Y94.69 E0.42218
G1 X112.369 Y94.576 E0.43872
G1 X112.919 Y94.459 E0.45742
G1 X113.487 Y94.353 E0.47664
G1 X114.131 Y94.251 E0.49833
G1 X114.674 Y94.179 E0.51655
G1 X115.287 Y94.113 E0.53705
G1 X115.805 Y94.07 E0.55434
G1 X116.387 Y94.035 E0.57373
G1 X116.943 Y94.015 E0.59224
G1 X117.576 Y94.009 E0.61329
G1 X118.092 Y94.017 E0.63046
G1 X118.705 Y94.04 E0.65086
G1 X119.283 Y94.077 E0.67012
G1 X119.914 Y94.134 E0.6912
G1 X120.415 Y94.191 E0.70797
G1 X120.985 Y94.269 E0.7271
G1 X121.504 Y94.352 E0.74458
G1 X122.112 Y94.465 E0.76515
G1 X122.701 Y94.592 E0.78519
G1 X123.326 Y94.744 E0.80659
G1 X123.822 Y94.876 E0.82366
G1 X124.412 Y95.049 E0.84411
G1 X124.931 Y95.216 E0.86224
G1 X125.483 Y95.408 E0.88168
G1 X125.966 Y95.589 E0.89883
G1 X126.554 Y95.825 E0.91991
G1 X127.048 Y96.037 E0.93779
G1 X127.551 Y96.268 E0.9562
G1 X127.902 Y96.436 E0.96914
G1 X128.106 Y96.539 E0.97674
G1 X128.62 Y96.806 E0.99601
G1 X129.13 Y97.089 E1.0154
G1 X129.682 Y97.414 E1.03671
G1 X130.137 Y97.697 E1.05453
G1 X130.623 Y98.016 E1.07387
G1 X131.044 Y98.307 E1.09089
G1 X131.535 Y98.663 E1.11106
G1 X131.945 Y98.975 E1.1282
G1 X132.388 Y99.329 E1.14706
G1 X132.727 Y99.611 E1.16172
G1 X132.898 Y99.76 E1.16927
G1 X133.34 Y100.153 E1.18894
G1 X133.737 Y100.523 E1.20699
G1 X134.172 Y100.95 E1.22726
G1 X134.558 Y101.349 E1.24573
G1 X134.953 Y101.778 E1.26512
G1 X135.286 Y102.157 E1.2819
G1 X135.704 Y102.655 E1.30353
G1 X136.04 Y103.075 E1.32142
G1 X136.406 Y103.557 E1.34155
G1 X136.724 Y103.998 E1.35963
G1 X137.064 Y104.495 E1.37966
G1 X137.375 Y104.977 E1.39874
G1 X137.713 Y105.531 E1.42032
G1 X137.974 Y105.982 E1.43765
G1 X138.248 Y106.483 E1.45665
G1 X138.485 Y106.942 E1.47383
G1 X138.755 Y107.496 E1.49433
G1 X138.992 Y108.015 E1.5133
G1 X139.229 Y108.573 E1.53347
G1 X139.422 Y109.06 E1.55089
G1 X139.643 Y109.658 E1.57209
G1 X139.813 Y110.156 E1.5896
G1 X139.978 Y110.678 E1.6078
G1 X140.075 Y111 E1.61899
G1 X140.156 Y111.293 E1.6291
G1 X140.311 Y111.889 E1.64958
G1 X140.425 Y112.374 E1.66615
G1 X140.543 Y112.93 E1.68506
G1 X140.648 Y113.494 E1.70414
G1 X140.749 Y114.132 E1.72562
G1 X140.819 Y114.655 E1.74317
G1 X140.885 Y115.258 E1.76335
G1 X140.931 Y115.806 E1.78164
G1 X140.966 Y116.398 E1.80136
G1 X140.985 Y116.943 E1.8195
G1 X140.991 Y117.575 E1.84052
G1 X140.983 Y118.091 E1.85769
G1 X140.96 Y118.705 E1.87812
G1 X140.925 Y119.27 E1.89695
G1 X140.869 Y119.898 E1.91792
G1 X140.809 Y120.423 E1.9355
G1 X140.73 Y120.996 E1.95474
G1 X140.648 Y121.504 E1.97185
G1 X140.535 Y122.112 E1.99242
G1 X140.408 Y122.701 E2.01246
G1 X140.256 Y123.326 E2.03385
G1 X140.127 Y123.811 E2.05054
G1 X139.957 Y124.393 E2.07071
G1 X139.786 Y124.926 E2.08933
G1 X139.591 Y125.486 E2.10905
G1 X139.411 Y125.966 E2.1261
G1 X139.175 Y126.554 E2.14717
G1 X138.963 Y127.048 E2.16505
G1 X138.732 Y127.551 E2.18346
G1 X138.564 Y127.902 E2.19641
G1 X138.198 Y128.611 E2.22294
G1 X137.909 Y129.134 E2.24282
G1 X137.583 Y129.687 E2.26417
G1 X137.303 Y130.137 E2.2818
G1 X136.984 Y130.623 E2.30113
G1 X136.693 Y131.044 E2.31816
G1 X136.337 Y131.535 E2.33833
G1 X136.025 Y131.945 E2.35546
G1 X135.671 Y132.388 E2.37432
G1 X135.389 Y132.727 E2.38899
G1 X135.24 Y132.898 E2.39653
G1 X134.847 Y133.34 E2.41621
G1 X134.477 Y133.737 E2.43426
G1 X134.05 Y134.172 E2.45453
G1 X133.654 Y134.555 E2.47285
G1 X133.221 Y134.954 E2.49244
G1 X132.843 Y135.287 E2.50919
G1 X132.349 Y135.702 E2.53065
G1 X131.905 Y136.056 E2.54954
G1 X131.422 Y136.421 E2.56967
G1 X131.009 Y136.718 E2.58659
G1 X130.513 Y137.058 E2.60659
G1 X130.023 Y137.375 E2.626
G1 X129.469 Y137.713 E2.64759
G1 X129.018 Y137.974 E2.66492
G1 X128.517 Y138.248 E2.68391
G1 X128.051 Y138.489 E2.70136
G1 X127.496 Y138.759 E2.72189
G1 X126.987 Y138.991 E2.74049
G1 X126.427 Y139.229 E2.76073
G1 X125.939 Y139.422 E2.77819
G1 X125.344 Y139.642 E2.79929
G1 X124.81 Y139.824 E2.81805
G1 X124.218 Y140.009 E2.83868
G1 X123.71 Y140.155 E2.85626
G1 X123.115 Y140.31 E2.87671
G1 X122.631 Y140.424 E2.89325
G1 X122.081 Y140.541 E2.91195
G1 X121.513 Y140.647 E2.93117
G1 X120.869 Y140.749 E2.95285
G1 X120.326 Y140.821 E2.97107
G1 X119.713 Y140.887 E2.99158
G1 X119.195 Y140.93 E3.00887
G1 X118.613 Y140.965 E3.02826
G1 X118.057 Y140.985 E3.04676
G1 X117.424 Y140.991 E3.06782
G1 X116.908 Y140.983 E3.08498
G1 X116.295 Y140.96 E3.10539
G1 X115.717 Y140.923 E3.12465
G1 X115.086 Y140.866 E3.14572
G1 X114.585 Y140.809 E3.16249
G1 X114.015 Y140.731 E3.18163
G1 X113.496 Y140.648 E3.19911
G1 X112.888 Y140.535 E3.21968
G1 X112.299 Y140.408 E3.23972
G1 X111.674 Y140.256 E3.26111
G1 X111.178 Y140.124 E3.27818
G1 X110.588 Y139.951 E3.29863
G1 X110.069 Y139.784 E3.31677
G1 X109.517 Y139.592 E3.3362
G1 X109.034 Y139.411 E3.35336
G1 X108.446 Y139.175 E3.37443
G1 X107.951 Y138.963 E3.39234
G1 X107.446 Y138.731 E3.41083
G1 X107.133 Y138.581 E3.42237
G1 X106.867 Y138.447 E3.43228
G1 X106.363 Y138.184 E3.45119
G1 X105.879 Y137.915 E3.4696
G1 X105.326 Y137.59 E3.49094
G1 X104.863 Y137.303 E3.50906
G1 X104.377 Y136.984 E3.52839
G1 X103.956 Y136.693 E3.54541
G1 X103.465 Y136.337 E3.56558
G1 X103.053 Y136.023 E3.58281
G1 X102.609 Y135.668 E3.60172
G1 X102.283 Y135.398 E3.6158
G1 X102.1 Y135.238 E3.62389
G1 X101.656 Y134.843 E3.64365
G1 X101.262 Y134.475 E3.66158
G1 X100.829 Y134.05 E3.68176
G1 X100.445 Y133.654 E3.70011
G1 X100.046 Y133.221 E3.71969
G1 X99.713 Y132.843 E3.73645
G1 X99.298 Y132.349 E3.75791
G1 X98.944 Y131.905 E3.77679
G1 X98.579 Y131.422 E3.79693
G1 X98.285 Y131.013 E3.81368
G1 X97.944 Y130.516 E3.83373
G1 X97.621 Y130.017 E3.8535
G1 X97.284 Y129.464 E3.87504
G1 X97.026 Y129.018 E3.89218
G1 X96.752 Y128.517 E3.91117
G1 X96.511 Y128.051 E3.92862
G1 X96.241 Y127.496 E3.94915
G1 X96.009 Y126.987 E3.96775
G1 X95.771 Y126.427 E3.98799
G1 X95.579 Y125.943 E4.00531
G1 X95.358 Y125.346 E4.02648
G1 X95.173 Y124.802 E4.04559
G1 X94.989 Y124.212 E4.06615
G1 X94.845 Y123.71 E4.08352
G1 X94.69 Y123.115 E4.10397
G1 X94.573 Y122.616 E4.12101
G1 X94.453 Y122.048 E4.14032
G1 X94.348 Y121.48 E4.15953
G1 X94.248 Y120.843 E4.18098
G1 X94.179 Y120.318 E4.19859
G1 X94.114 Y119.716 E4.21873
G1 X94.069 Y119.186 E4.23642
G1 X94.034 Y118.596 E4.25608
G1 X94.016 Y118.05 E4.27425
G1 X94.01 Y117.424 E4.29507
G1 X94.017 Y116.907 E4.31227
G1 X94.04 Y116.294 E4.33267
G1 X94.077 Y115.715 E4.35197
G1 X94.134 Y115.085 E4.37301
G1 X94.191 Y114.585 E4.38975
G1 X94.269 Y114.015 E4.40888
G1 X94.354 Y113.484 E4.42677
G1 X94.469 Y112.869 E4.44758
G1 X94.592 Y112.299 E4.46697
G1 X94.745 Y111.668 E4.48857
G1 X94.876 Y111.176 E4.5055
G1 X95.027 Y110.659 E4.52341
G1 X95.125 Y110.342 E4.53445
G1 X95.218 Y110.062 E4.54426
G1 X95.408 Y109.516 E4.56349
G1 X95.589 Y109.034 E4.58062
G1 X95.825 Y108.446 E4.60169
G1 X96.037 Y107.952 E4.61957
G1 X96.268 Y107.449 E4.63798
G1 X96.436 Y107.098 E4.65092
G1 X96.806 Y106.382 E4.67773
G1 X97.079 Y105.888 E4.6965
G1 X97.482 Y105.204 E4.72291
G1 X97.698 Y104.861 E4.73639
G1 X98.012 Y104.382 E4.75544
G1 X98.307 Y103.956 E4.77267
G1 X98.663 Y103.465 E4.79284
G1 X98.982 Y103.046 E4.81036
G1 X99.336 Y102.604 E4.82919
G1 X99.57 Y102.321 E4.84141
G1 X99.759 Y102.102 E4.85103
G1 X100.151 Y101.661 E4.87065
G1 X100.523 Y101.263 E4.88877
G1 X100.95 Y100.828 E4.90905
G0 F6000 X101.235 Y101.109
G1 F1200 X101.599 Y100.755 E4.92593
G1 X102.03 Y100.356 E4.94547
G1 X102.431 Y100.004 E4.96322
G1 X102.926 Y99.59 E4.98468
G1 X103.333 Y99.266 E5.00198
G1 X103.817 Y98.9 E5.02216
G1 X104.217 Y98.612 E5.03856
G1 X104.713 Y98.272 E5.05856
G1 X105.16 Y97.982 E5.07628
G1 X105.647 Y97.683 E5.09529
G1 X105.98 Y97.486 E5.10816
G1 X106.184 Y97.372 E5.11593
G1 X106.68 Y97.101 E5.13473
G1 X107.125 Y96.871 E5.15139
G1 X107.68 Y96.601 E5.17192
G1 X108.162 Y96.381 E5.18954
G1 X108.723 Y96.142 E5.20982
G1 X109.206 Y95.95 E5.22711
G1 X109.799 Y95.731 E5.24813
G1 X110.309 Y95.558 E5.26604
G1 X110.901 Y95.373 E5.28667
G1 X111.391 Y95.232 E5.30363
G1 X111.986 Y95.077 E5.32408
G1 X112.452 Y94.967 E5.34001
G1 X113.002 Y94.85 E5.35871
G1 X113.55 Y94.749 E5.37724
G1 X114.194 Y94.647 E5.39893
G1 X114.717 Y94.577 E5.41648
G1 X115.33 Y94.511 E5.43699
G1 X115.829 Y94.469 E5.45364
G1 X116.411 Y94.434 E5.47303
G1 X116.947 Y94.415 E5.49087
G1 X117.58 Y94.409 E5.51193
G1 X118.077 Y94.416 E5.52846
G1 X118.69 Y94.439 E5.54886
G1 X119.247 Y94.475 E5.56743
G1 X119.878 Y94.532 E5.5885
G1 X120.361 Y94.587 E5.60467
G1 X120.931 Y94.665 E5.6238
G1 X121.431 Y94.745 E5.64064
G1 X122.039 Y94.858 E5.66121
G1 X122.607 Y94.98 E5.68054
G1 X123.232 Y95.132 E5.70193
G1 X123.71 Y95.26 E5.71839
G1 X124.3 Y95.433 E5.73884
G1 X124.799 Y95.593 E5.75627
G1 X125.351 Y95.785 E5.7757
G1 X125.817 Y95.96 E5.79226
G1 X126.405 Y96.196 E5.81333
G1 X126.881 Y96.4 E5.83056
G1 X127.384 Y96.631 E5.84897
G1 X127.725 Y96.795 E5.86155
G1 X127.921 Y96.894 E5.86886
G1 X128.435 Y97.161 E5.88812
G1 X128.927 Y97.434 E5.90684
G1 X129.479 Y97.759 E5.92814
G1 X129.918 Y98.031 E5.94532
G1 X130.404 Y98.35 E5.96465
G1 X130.809 Y98.63 E5.98103
G1 X131.3 Y98.986 E6.0012
G1 X131.695 Y99.287 E6.01772
G1 X132.138 Y99.641 E6.03658
G1 X132.468 Y99.915 E6.05085
G1 X132.632 Y100.058 E6.05808
G1 X133.074 Y100.451 E6.07775
G1 X133.456 Y100.808 E6.09514
G1 X133.891 Y101.235 E6.11542
G1 X134.264 Y101.62 E6.13325
G1 X134.659 Y102.049 E6.15264
G1 X134.98 Y102.414 E6.16881
G1 X135.398 Y102.912 E6.19043
G1 X135.721 Y103.317 E6.20766
G1 X136.087 Y103.799 E6.22779
G1 X136.394 Y104.224 E6.24523
G1 X136.734 Y104.721 E6.26526
G1 X137.034 Y105.185 E6.28364
G1 X137.372 Y105.739 E6.30522
G1 X137.623 Y106.174 E6.32193
G1 X137.897 Y106.675 E6.34092
G1 X138.126 Y107.117 E6.35748
G1 X138.396 Y107.671 E6.37797
G1 X138.623 Y108.171 E6.39624
G1 X138.86 Y108.729 E6.4164
G1 X139.047 Y109.199 E6.43323
G1 X139.268 Y109.797 E6.45443
G1 X139.432 Y110.276 E6.47127
G1 X139.597 Y110.798 E6.48948
G1 X139.691 Y111.111 E6.50035
G1 X139.769 Y111.394 E6.51011
G1 X139.924 Y111.99 E6.53059
G1 X140.034 Y112.457 E6.54655
G1 X140.152 Y113.013 E6.56546
G1 X140.253 Y113.557 E6.58386
G1 X140.354 Y114.195 E6.60534
G1 X140.421 Y114.699 E6.62225
G1 X140.487 Y115.302 E6.64243
G1 X140.532 Y115.829 E6.66002
G1 X140.567 Y116.421 E6.67974
G1 X140.585 Y116.946 E6.69722
G1 X140.591 Y117.578 E6.71824
G1 X140.584 Y118.076 E6.7348
G1 X140.561 Y118.69 E6.75524
G1 X140.526 Y119.234 E6.77337
G1 X140.47 Y119.862 E6.79434
G1 X140.413 Y120.369 E6.81131
G1 X140.334 Y120.942 E6.83055
G1 X140.255 Y121.431 E6.84702
G1 X140.142 Y122.039 E6.86759
G1 X140.02 Y122.607 E6.88691
G1 X139.868 Y123.232 E6.90831
G1 X139.743 Y123.699 E6.92439
G1 X139.573 Y124.281 E6.94455
G1 X139.408 Y124.795 E6.96251
G1 X139.213 Y125.355 E6.98223
G1 X139.04 Y125.817 E6.99864
G1 X138.804 Y126.405 E7.01971
G1 X138.6 Y126.881 E7.03694
G1 X138.369 Y127.384 E7.05535
G1 X138.205 Y127.725 E7.06793
G1 X137.843 Y128.427 E7.0942
G1 X137.564 Y128.931 E7.11336
G1 X137.238 Y129.484 E7.13471
G1 X136.969 Y129.918 E7.1517
G1 X136.65 Y130.404 E7.17103
G1 X136.37 Y130.809 E7.18741
G1 X136.014 Y131.3 E7.20758
G1 X135.713 Y131.695 E7.2241
G1 X135.359 Y132.138 E7.24296
G1 X135.085 Y132.468 E7.25722
G1 X134.942 Y132.632 E7.26446
G1 X134.549 Y133.074 E7.28413
G1 X134.192 Y133.456 E7.30152
G1 X133.765 Y133.891 E7.3218
G1 X133.383 Y134.261 E7.33948
G1 X132.95 Y134.66 E7.35907
G1 X132.585 Y134.981 E7.37523
G1 X132.091 Y135.396 E7.39669
G1 X131.664 Y135.737 E7.41487
G1 X131.181 Y136.102 E7.435
G1 X130.783 Y136.388 E7.45131
G1 X130.287 Y136.728 E7.47131
G1 X129.815 Y137.034 E7.49002
G1 X129.261 Y137.372 E7.5116
G1 X128.826 Y137.623 E7.5283
G1 X128.325 Y137.897 E7.5473
G1 X127.876 Y138.129 E7.56411
G1 X127.321 Y138.399 E7.58463
G1 X126.83 Y138.623 E7.60258
G1 X126.27 Y138.861 E7.62282
G1 X125.8 Y139.047 E7.63963
G1 X125.205 Y139.267 E7.66073
G1 X124.691 Y139.442 E7.67879
G1 X124.099 Y139.627 E7.69942
G1 X123.609 Y139.768 E7.71638
G1 X123.014 Y139.923 E7.73683
G1 X122.548 Y140.033 E7.75276
G1 X121.998 Y140.15 E7.77146
G1 X121.45 Y140.251 E7.78999
G1 X120.806 Y140.353 E7.81168
G1 X120.283 Y140.423 E7.82923
G1 X119.67 Y140.489 E7.84973
G1 X119.171 Y140.531 E7.86639
G1 X118.589 Y140.566 E7.88578
G1 X118.053 Y140.585 E7.90362
G1 X117.42 Y140.591 E7.92468
G1 X116.923 Y140.584 E7.94121
G1 X116.31 Y140.561 E7.96161
G1 X115.753 Y140.525 E7.98017
G1 X115.122 Y140.468 E8.00125
G1 X114.639 Y140.413 E8.01742
G1 X114.069 Y140.335 E8.03655
G1 X113.569 Y140.255 E8.05339
G1 X112.961 Y140.142 E8.07396
G1 X112.393 Y140.02 E8.09328
G1 X111.768 Y139.868 E8.11468
G1 X111.29 Y139.74 E8.13114
G1 X110.7 Y139.567 E8.15159
G1 X110.201 Y139.407 E8.16901
G1 X109.649 Y139.215 E8.18845
G1 X109.183 Y139.04 E8.20501
G1 X108.595 Y138.804 E8.22608
G1 X108.118 Y138.599 E8.24335
G1 X107.613 Y138.367 E8.26183
G1 X107.309 Y138.222 E8.27304
G1 X107.052 Y138.092 E8.28262
G1 X106.548 Y137.829 E8.30152
G1 X106.081 Y137.571 E8.31927
G1 X105.528 Y137.246 E8.3406
G1 X105.082 Y136.969 E8.35807
G1 X104.596 Y136.65 E8.3774
G1 X104.191 Y136.37 E8.39378
G1 X103.7 Y136.014 E8.41395
G1 X103.303 Y135.711 E8.43056
G1 X102.859 Y135.356 E8.44947
G1 X102.542 Y135.094 E8.46315
G1 X102.365 Y134.94 E8.47095
G1 X101.921 Y134.545 E8.49071
G1 X101.542 Y134.19 E8.50799
G1 X101.109 Y133.765 E8.52817
G1 X100.739 Y133.383 E8.54585
G1 X100.34 Y132.95 E8.56544
G1 X100.019 Y132.585 E8.5816
G1 X99.604 Y132.091 E8.60306
G1 X99.263 Y131.664 E8.62124
G1 X98.898 Y131.181 E8.64137
G1 X98.615 Y130.787 E8.65751
G1 X98.274 Y130.29 E8.67756
G1 X97.962 Y129.809 E8.69663
G1 X97.625 Y129.256 E8.71816
G1 X97.377 Y128.826 E8.73467
G1 X97.103 Y128.325 E8.75367
G1 X96.871 Y127.876 E8.77048
G1 X96.601 Y127.321 E8.791
G1 X96.377 Y126.83 E8.80895
G1 X96.139 Y126.27 E8.82919
G1 X95.954 Y125.804 E8.84587
G1 X95.733 Y125.207 E8.86704
G1 X95.555 Y124.683 E8.88545
G1 X95.371 Y124.093 E8.906
G1 X95.232 Y123.609 E8.92275
G1 X95.077 Y123.014 E8.9432
G1 X94.964 Y122.533 E8.95964
G1 X94.844 Y121.965 E8.97894
G1 X94.743 Y121.418 E8.99745
G1 X94.643 Y120.781 E9.01889
G1 X94.576 Y120.275 E9.03587
G1 X94.511 Y119.673 E9.05601
G1 X94.469 Y119.163 E9.07303
G1 X94.434 Y118.573 E9.09269
G1 X94.415 Y118.047 E9.11019
G1 X94.409 Y117.421 E9.13101
G1 X94.416 Y116.922 E9.14761
G1 X94.439 Y116.309 E9.16801
G1 X94.475 Y115.751 E9.18661
G1 X94.532 Y115.121 E9.20765
G1 X94.587 Y114.639 E9.22379
G1 X94.665 Y114.069 E9.24292
G1 X94.748 Y113.558 E9.26014
G1 X94.863 Y112.943 E9.28095
G1 X94.981 Y112.393 E9.29966
G1 X95.134 Y111.762 E9.32125
G1 X95.26 Y111.288 E9.33757
G1 X95.411 Y110.771 E9.35548
G1 X95.506 Y110.463 E9.3662
G1 X95.596 Y110.193 E9.37567
G1 X95.786 Y109.647 E9.3949
G1 X95.96 Y109.183 E9.41138
G1 X96.196 Y108.595 E9.43245
G1 X96.4 Y108.119 E9.44968
G1 X96.631 Y107.616 E9.46809
